<?xml version="1.0" encoding="UTF-8"?>
<map version="1.10" tiledversion="1.11.0" orientation="orthogonal" renderorder="right-down" width="80" height="45" tilewidth="32" tileheight="32" infinite="0" backgroundcolor="#47aba9" nextlayerid="14" nextobjectid="477">
 <properties>
  <property name="emergencyButtonX" type="int" value="1280"/>
  <property name="emergencyButtonY" type="int" value="742"/>
 </properties>
 <tileset firstgid="1" source="tilesets/terrain/water.tsx"/>
 <tileset firstgid="5" source="tilesets/terrain/sand.tsx"/>
 <tileset firstgid="165" source="tilesets/terrain/grass.tsx"/>
 <tileset firstgid="381" source="tilesets/terrain/bridge.tsx"/>
 <tileset firstgid="429" source="tilesets/terrain/interior.tsx"/>
 <tileset firstgid="1197" source="tilesets/objects/archery_red.tsx"/>
 <tileset firstgid="1198" source="tilesets/objects/axe.tsx"/>
 <tileset firstgid="1199" source="tilesets/objects/barracks_yellow.tsx"/>
 <tileset firstgid="1200" source="tilesets/objects/bush1.tsx"/>
 <tileset firstgid="1208" source="tilesets/objects/bush2.tsx"/>
 <tileset firstgid="1216" source="tilesets/objects/bush3.tsx"/>
 <tileset firstgid="1224" source="tilesets/objects/bush4.tsx"/>
 <tileset firstgid="1232" source="tilesets/objects/castle_blue.tsx"/>
 <tileset firstgid="1233" source="tilesets/objects/deco01.tsx"/>
 <tileset firstgid="1234" source="tilesets/objects/deco02.tsx"/>
 <tileset firstgid="1235" source="tilesets/objects/deco03.tsx"/>
 <tileset firstgid="1236" source="tilesets/objects/deco04.tsx"/>
 <tileset firstgid="1237" source="tilesets/objects/deco05.tsx"/>
 <tileset firstgid="1238" source="tilesets/objects/deco07.tsx"/>
 <tileset firstgid="1239" source="tilesets/objects/deco08.tsx"/>
 <tileset firstgid="1240" source="tilesets/objects/deco10.tsx"/>
 <tileset firstgid="1241" source="tilesets/objects/deco11.tsx"/>
 <tileset firstgid="1242" source="tilesets/objects/deco12.tsx"/>
 <tileset firstgid="1243" source="tilesets/objects/deco13.tsx"/>
 <tileset firstgid="1244" source="tilesets/objects/deco14.tsx"/>
 <tileset firstgid="1245" source="tilesets/objects/deco15.tsx"/>
 <tileset firstgid="1246" source="tilesets/objects/duck.tsx"/>
 <tileset firstgid="1249" source="tilesets/objects/foam.tsx"/>
 <tileset firstgid="1265" source="tilesets/objects/gold_mine.tsx"/>
 <tileset firstgid="1266" source="tilesets/objects/gold_pile.tsx"/>
 <tileset firstgid="1267" source="tilesets/objects/gold_stone1.tsx"/>
 <tileset firstgid="1268" source="tilesets/objects/gold_stone4.tsx"/>
 <tileset firstgid="1269" source="tilesets/objects/gold_stone6.tsx"/>
 <tileset firstgid="1270" source="tilesets/objects/hammer.tsx"/>
 <tileset firstgid="1271" source="tilesets/objects/house1_blue.tsx"/>
 <tileset firstgid="1272" source="tilesets/objects/house1_yellow.tsx"/>
 <tileset firstgid="1273" source="tilesets/objects/house2_yellow.tsx"/>
 <tileset firstgid="1274" source="tilesets/objects/int_altar.tsx"/>
 <tileset firstgid="1275" source="tilesets/objects/int_bar_l.tsx"/>
 <tileset firstgid="1276" source="tilesets/objects/int_barrel.tsx"/>
 <tileset firstgid="1277" source="tilesets/objects/int_bed_blue.tsx"/>
 <tileset firstgid="1278" source="tilesets/objects/int_boards.tsx"/>
 <tileset firstgid="1279" source="tilesets/objects/int_candle.tsx"/>
 <tileset firstgid="1280" source="tilesets/objects/int_cauldron.tsx"/>
 <tileset firstgid="1281" source="tilesets/objects/int_cauldron_hot.tsx"/>
 <tileset firstgid="1282" source="tilesets/objects/int_chair_l.tsx"/>
 <tileset firstgid="1283" source="tilesets/objects/int_chair_r.tsx"/>
 <tileset firstgid="1284" source="tilesets/objects/int_chest_iron.tsx"/>
 <tileset firstgid="1285" source="tilesets/objects/int_clock.tsx"/>
 <tileset firstgid="1286" source="tilesets/objects/int_counter.tsx"/>
 <tileset firstgid="1287" source="tilesets/objects/int_counter_goods.tsx"/>
 <tileset firstgid="1288" source="tilesets/objects/int_crate.tsx"/>
 <tileset firstgid="1289" source="tilesets/objects/int_crates.tsx"/>
 <tileset firstgid="1290" source="tilesets/objects/int_fireplace.tsx"/>
 <tileset firstgid="1291" source="tilesets/objects/int_flowers1.tsx"/>
 <tileset firstgid="1292" source="tilesets/objects/int_flowers3.tsx"/>
 <tileset firstgid="1293" source="tilesets/objects/int_logs.tsx"/>
 <tileset firstgid="1294" source="tilesets/objects/int_mat_blue.tsx"/>
 <tileset firstgid="1295" source="tilesets/objects/int_mat_brown.tsx"/>
 <tileset firstgid="1296" source="tilesets/objects/int_mat_grey.tsx"/>
 <tileset firstgid="1297" source="tilesets/objects/int_mat_red.tsx"/>
 <tileset firstgid="1298" source="tilesets/objects/int_nightstand_candle.tsx"/>
 <tileset firstgid="1299" source="tilesets/objects/int_painting.tsx"/>
 <tileset firstgid="1300" source="tilesets/objects/int_palm_pot.tsx"/>
 <tileset firstgid="1301" source="tilesets/objects/int_rug_blue.tsx"/>
 <tileset firstgid="1302" source="tilesets/objects/int_rug_green.tsx"/>
 <tileset firstgid="1303" source="tilesets/objects/int_rug_red.tsx"/>
 <tileset firstgid="1304" source="tilesets/objects/int_shelf.tsx"/>
 <tileset firstgid="1305" source="tilesets/objects/int_shelf_dishes.tsx"/>
 <tileset firstgid="1306" source="tilesets/objects/int_shelf_jars.tsx"/>
 <tileset firstgid="1307" source="tilesets/objects/int_shelf_potions.tsx"/>
 <tileset firstgid="1308" source="tilesets/objects/int_shelf_pots.tsx"/>
 <tileset firstgid="1309" source="tilesets/objects/int_sofa.tsx"/>
 <tileset firstgid="1310" source="tilesets/objects/int_stool.tsx"/>
 <tileset firstgid="1311" source="tilesets/objects/int_table_long.tsx"/>
 <tileset firstgid="1312" source="tilesets/objects/int_table_red.tsx"/>
 <tileset firstgid="1313" source="tilesets/objects/int_win_glass.tsx"/>
 <tileset firstgid="1314" source="tilesets/objects/int_win_round.tsx"/>
 <tileset firstgid="1315" source="tilesets/objects/int_win_square.tsx"/>
 <tileset firstgid="1316" source="tilesets/objects/int_win_wide.tsx"/>
 <tileset firstgid="1317" source="tilesets/objects/meat.tsx"/>
 <tileset firstgid="1318" source="tilesets/objects/oak.tsx"/>
 <tileset firstgid="1326" source="tilesets/objects/oak_autumn.tsx"/>
 <tileset firstgid="1334" source="tilesets/objects/pickaxe.tsx"/>
 <tileset firstgid="1335" source="tilesets/objects/pine.tsx"/>
 <tileset firstgid="1343" source="tilesets/objects/pine_tall.tsx"/>
 <tileset firstgid="1351" source="tilesets/objects/rock1.tsx"/>
 <tileset firstgid="1352" source="tilesets/objects/rock3.tsx"/>
 <tileset firstgid="1353" source="tilesets/objects/rock4.tsx"/>
 <tileset firstgid="1354" source="tilesets/objects/scarecrow.tsx"/>
 <tileset firstgid="1355" source="tilesets/objects/sheep.tsx"/>
 <tileset firstgid="1361" source="tilesets/objects/sheep_grazing.tsx"/>
 <tileset firstgid="1373" source="tilesets/objects/sign_arrow.tsx"/>
 <tileset firstgid="1374" source="tilesets/objects/sign_skull.tsx"/>
 <tileset firstgid="1375" source="tilesets/objects/stump1.tsx"/>
 <tileset firstgid="1376" source="tilesets/objects/stump2.tsx"/>
 <tileset firstgid="1377" source="tilesets/objects/stump3.tsx"/>
 <tileset firstgid="1378" source="tilesets/objects/tower_red.tsx"/>
 <tileset firstgid="1379" source="tilesets/objects/water_rock1.tsx"/>
 <tileset firstgid="1395" source="tilesets/objects/water_rock2.tsx"/>
 <tileset firstgid="1411" source="tilesets/objects/water_rock3.tsx"/>
 <tileset firstgid="1427" source="tilesets/objects/wood.tsx"/>
 <layer id="1" name="water" width="80" height="45">
  <data encoding="csv">
1,1,1,1,1,1,1,1,1,1,1,1,1,1,1,1,1,1,1,1,1,1,1,1,1,1,1,1,1,1,1,1,1,1,1,1,1,1,1,1,1,1,1,1,1,1,1,1,1,1,1,1,1,1,1,1,1,1,1,1,1,1,1,1,1,1,1,1,1,1,1,1,1,1,1,1,1,1,1,1,
1,1,1,1,1,1,1,1,1,1,1,1,1,1,1,1,1,1,1,1,1,1,1,1,1,1,1,1,1,1,1,1,1,1,1,1,1,1,1,1,1,1,1,1,1,1,1,1,1,1,1,1,1,1,1,1,1,1,1,1,1,1,1,1,1,1,1,1,1,1,1,1,1,1,1,1,1,1,1,1,
1,1,1,1,1,1,1,1,1,1,1,1,1,1,1,1,1,1,1,1,1,1,1,1,1,1,1,1,1,1,1,1,1,1,1,1,1,1,1,1,1,1,1,1,1,1,1,1,1,1,1,1,1,1,1,1,1,1,1,1,1,1,1,1,1,1,1,1,1,1,1,1,1,1,1,1,1,1,1,1,
1,1,1,1,1,1,1,1,1,1,1,1,1,1,1,1,1,1,1,1,1,1,1,1,1,1,1,1,1,1,1,1,1,1,1,1,1,1,1,1,1,1,1,1,1,1,1,1,1,1,1,1,1,1,1,1,1,1,1,1,1,1,1,1,1,1,1,1,1,1,1,1,1,1,1,1,1,1,1,1,
1,1,1,1,1,1,1,1,1,1,1,1,1,1,1,1,1,1,1,1,1,1,1,1,1,1,1,1,1,1,1,1,1,1,1,1,1,1,1,1,1,1,1,1,1,1,1,1,1,1,1,1,1,1,1,1,1,1,1,1,1,1,1,1,1,1,1,1,1,1,1,1,1,1,1,1,1,1,1,1,
1,1,1,1,1,1,1,1,1,1,1,1,1,1,1,1,1,1,1,1,1,1,1,1,1,1,1,1,1,1,1,1,1,1,1,1,1,1,1,1,1,1,1,1,1,1,1,1,1,1,1,1,1,1,1,1,1,1,1,1,1,1,1,1,1,1,1,1,1,1,1,1,1,1,1,1,1,1,1,1,
1,1,1,1,1,1,1,1,1,1,1,1,1,1,1,1,1,1,1,1,1,1,1,1,1,1,1,1,1,1,1,1,1,1,1,1,1,1,1,1,1,1,1,1,1,1,1,1,1,1,1,1,1,1,1,1,1,1,1,1,1,1,1,1,1,1,1,1,1,1,1,1,1,1,1,1,1,1,1,1,
1,1,1,1,1,1,1,1,1,1,1,1,1,1,1,1,1,1,1,1,1,1,1,1,1,1,1,1,1,1,1,1,1,1,1,1,1,1,1,1,1,1,1,1,1,1,1,1,1,1,1,1,1,1,1,1,1,1,1,1,1,1,1,1,1,1,1,1,1,1,1,1,1,1,1,1,1,1,1,1,
1,1,1,1,1,1,1,1,1,1,1,1,1,1,1,1,1,1,1,1,1,1,1,1,1,1,1,1,1,1,1,1,1,1,1,1,1,1,1,1,1,1,1,1,1,1,1,1,1,1,1,1,1,1,1,1,1,1,1,1,1,1,1,1,1,1,1,1,1,1,1,1,1,1,1,1,1,1,1,1,
1,1,1,1,1,1,1,1,1,1,1,1,1,1,1,1,1,1,1,1,1,1,1,1,1,1,1,1,1,1,1,1,1,1,1,1,1,1,1,1,1,1,1,1,1,1,1,1,1,1,1,1,1,1,1,1,1,1,1,1,1,1,1,1,1,1,1,1,1,1,1,1,1,1,1,1,1,1,1,1,
1,1,1,1,1,1,1,1,1,1,1,1,1,1,1,1,1,1,1,1,1,1,1,1,1,1,1,1,1,1,1,1,1,1,1,1,1,1,1,1,1,1,1,1,1,1,1,1,1,1,1,1,1,1,1,1,1,1,1,1,1,1,1,1,1,1,1,1,1,1,1,1,1,1,1,1,1,1,1,1,
1,1,1,1,1,1,1,1,1,1,1,1,1,1,1,1,1,1,1,1,1,1,1,1,1,1,1,1,1,1,1,1,1,1,1,1,1,1,1,1,1,1,1,1,1,1,1,1,1,1,1,1,1,1,1,1,1,1,1,1,1,1,1,1,1,1,1,1,1,1,1,1,1,1,1,1,1,1,1,1,
1,1,1,1,1,1,1,1,1,1,1,1,1,1,1,1,1,1,1,1,1,1,1,1,1,1,1,1,1,1,1,1,1,1,1,1,1,1,1,1,1,1,1,1,1,1,1,1,1,1,1,1,1,1,1,1,1,1,1,1,1,1,1,1,1,1,1,1,1,1,1,1,1,1,1,1,1,1,1,1,
1,1,1,1,1,1,1,1,1,1,1,1,1,1,1,1,1,1,1,1,1,1,1,1,1,1,1,1,1,1,1,1,1,1,1,1,1,1,1,1,1,1,1,1,1,1,1,1,1,1,1,1,1,1,1,1,1,1,1,1,1,1,1,1,1,1,1,1,1,1,1,1,1,1,1,1,1,1,1,1,
1,1,1,1,1,1,1,1,1,1,1,1,1,1,1,1,1,1,1,1,1,1,1,1,1,1,1,1,1,1,1,1,1,1,1,1,1,1,1,1,1,1,1,1,1,1,1,1,1,1,1,1,1,1,1,1,1,1,1,1,1,1,1,1,1,1,1,1,1,1,1,1,1,1,1,1,1,1,1,1,
1,1,1,1,1,1,1,1,1,1,1,1,1,1,1,1,1,1,1,1,1,1,1,1,1,1,1,1,1,1,1,1,1,1,1,1,1,1,1,1,1,1,1,1,1,1,1,1,1,1,1,1,1,1,1,1,1,1,1,1,1,1,1,1,1,1,1,1,1,1,1,1,1,1,1,1,1,1,1,1,
1,1,1,1,1,1,1,1,1,1,1,1,1,1,1,1,1,1,1,1,1,1,1,1,1,1,1,1,1,1,1,1,1,1,1,1,1,1,1,1,1,1,1,1,1,1,1,1,1,1,1,1,1,1,1,1,1,1,1,1,1,1,1,1,1,1,1,1,1,1,1,1,1,1,1,1,1,1,1,1,
1,1,1,1,1,1,1,1,1,1,1,1,1,1,1,1,1,1,1,1,1,1,1,1,1,1,1,1,1,1,1,1,1,1,1,1,1,1,1,1,1,1,1,1,1,1,1,1,1,1,1,1,1,1,1,1,1,1,1,1,1,1,1,1,1,1,1,1,1,1,1,1,1,1,1,1,1,1,1,1,
1,1,1,1,1,1,1,1,1,1,1,1,1,1,1,1,1,1,1,1,1,1,1,1,1,1,1,1,1,1,1,1,1,1,1,1,1,1,1,1,1,1,1,1,1,1,1,1,1,1,1,1,1,1,1,1,1,1,1,1,1,1,1,1,1,1,1,1,1,1,1,1,1,1,1,1,1,1,1,1,
1,1,1,1,1,1,1,1,1,1,1,1,1,1,1,1,1,1,1,1,1,1,1,1,1,1,1,1,1,1,1,1,1,1,1,1,1,1,1,1,1,1,1,1,1,1,1,1,1,1,1,1,1,1,1,1,1,1,1,1,1,1,1,1,1,1,1,1,1,1,1,1,1,1,1,1,1,1,1,1,
1,1,1,1,1,1,1,1,1,1,1,1,1,1,1,1,1,1,1,1,1,1,1,1,1,1,1,1,1,1,1,1,1,1,1,1,1,1,1,1,1,1,1,1,1,1,1,1,1,1,1,1,1,1,1,1,1,1,1,1,1,1,1,1,1,1,1,1,1,1,1,1,1,1,1,1,1,1,1,1,
1,1,1,1,1,1,1,1,1,1,1,1,1,1,1,1,1,1,1,1,1,1,1,1,1,1,1,1,1,1,1,1,1,1,1,1,1,1,1,1,1,1,1,1,1,1,1,1,1,1,1,1,1,1,1,1,1,1,1,1,1,1,1,1,1,1,1,1,1,1,1,1,1,1,1,1,1,1,1,1,
1,1,1,1,1,1,1,1,1,1,1,1,1,1,1,1,1,1,1,1,1,1,1,1,1,1,1,1,1,1,1,1,1,1,1,1,1,1,1,1,1,1,1,1,1,1,1,1,1,1,1,1,1,1,1,1,1,1,1,1,1,1,1,1,1,1,1,1,1,1,1,1,1,1,1,1,1,1,1,1,
1,1,1,1,1,1,1,1,1,1,1,1,1,1,1,1,1,1,1,1,1,1,1,1,1,1,1,1,1,1,1,1,1,1,1,1,1,1,1,1,1,1,1,1,1,1,1,1,1,1,1,1,1,1,1,1,1,1,1,1,1,1,1,1,1,1,1,1,1,1,1,1,1,1,1,1,1,1,1,1,
1,1,1,1,1,1,1,1,1,1,1,1,1,1,1,1,1,1,1,1,1,1,1,1,1,1,1,1,1,1,1,1,1,1,1,1,1,1,1,1,1,1,1,1,1,1,1,1,1,1,1,1,1,1,1,1,1,1,1,1,1,1,1,1,1,1,1,1,1,1,1,1,1,1,1,1,1,1,1,1,
1,1,1,1,1,1,1,1,1,1,1,1,1,1,1,1,1,1,1,1,1,1,1,1,1,1,1,1,1,1,1,1,1,1,1,1,1,1,1,1,1,1,1,1,1,1,1,1,1,1,1,1,1,1,1,1,1,1,1,1,1,1,1,1,1,1,1,1,1,1,1,1,1,1,1,1,1,1,1,1,
1,1,1,1,1,1,1,1,1,1,1,1,1,1,1,1,1,1,1,1,1,1,1,1,1,1,1,1,1,1,1,1,1,1,1,1,1,1,1,1,1,1,1,1,1,1,1,1,1,1,1,1,1,1,1,1,1,1,1,1,1,1,1,1,1,1,1,1,1,1,1,1,1,1,1,1,1,1,1,1,
1,1,1,1,1,1,1,1,1,1,1,1,1,1,1,1,1,1,1,1,1,1,1,1,1,1,1,1,1,1,1,1,1,1,1,1,1,1,1,1,1,1,1,1,1,1,1,1,1,1,1,1,1,1,1,1,1,1,1,1,1,1,1,1,1,1,1,1,1,1,1,1,1,1,1,1,1,1,1,1,
1,1,1,1,1,1,1,1,1,1,1,1,1,1,1,1,1,1,1,1,1,1,1,1,1,1,1,1,1,1,1,1,1,1,1,1,1,1,1,1,1,1,1,1,1,1,1,1,1,1,1,1,1,1,1,1,1,1,1,1,1,1,1,1,1,1,1,1,1,1,1,1,1,1,1,1,1,1,1,1,
1,1,1,1,1,1,1,1,1,1,1,1,1,1,1,1,1,1,1,1,1,1,1,1,1,1,1,1,1,1,1,1,1,1,1,1,1,1,1,1,1,1,1,1,1,1,1,1,1,1,1,1,1,1,1,1,1,1,1,1,1,1,1,1,1,1,1,1,1,1,1,1,1,1,1,1,1,1,1,1,
1,1,1,1,1,1,1,1,1,1,1,1,1,1,1,1,1,1,1,1,1,1,1,1,1,1,1,1,1,1,1,1,1,1,1,1,1,1,1,1,1,1,1,1,1,1,1,1,1,1,1,1,1,1,1,1,1,1,1,1,1,1,1,1,1,1,1,1,1,1,1,1,1,1,1,1,1,1,1,1,
1,1,1,1,1,1,1,1,1,1,1,1,1,1,1,1,1,1,1,1,1,1,1,1,1,1,1,1,1,1,1,1,1,1,1,1,1,1,1,1,1,1,1,1,1,1,1,1,1,1,1,1,1,1,1,1,1,1,1,1,1,1,1,1,1,1,1,1,1,1,1,1,1,1,1,1,1,1,1,1,
1,1,1,1,1,1,1,1,1,1,1,1,1,1,1,1,1,1,1,1,1,1,1,1,1,1,1,1,1,1,1,1,1,1,1,1,1,1,1,1,1,1,1,1,1,1,1,1,1,1,1,1,1,1,1,1,1,1,1,1,1,1,1,1,1,1,1,1,1,1,1,1,1,1,1,1,1,1,1,1,
1,1,1,1,1,1,1,1,1,1,1,1,1,1,1,1,1,1,1,1,1,1,1,1,1,1,1,1,1,1,1,1,1,1,1,1,1,1,1,1,1,1,1,1,1,1,1,1,1,1,1,1,1,1,1,1,1,1,1,1,1,1,1,1,1,1,1,1,1,1,1,1,1,1,1,1,1,1,1,1,
1,1,1,1,1,1,1,1,1,1,1,1,1,1,1,1,1,1,1,1,1,1,1,1,1,1,1,1,1,1,1,1,1,1,1,1,1,1,1,1,1,1,1,1,1,1,1,1,1,1,1,1,1,1,1,1,1,1,1,1,1,1,1,1,1,1,1,1,1,1,1,1,1,1,1,1,1,1,1,1,
1,1,1,1,1,1,1,1,1,1,1,1,1,1,1,1,1,1,1,1,1,1,1,1,1,1,1,1,1,1,1,1,1,1,1,1,1,1,1,1,1,1,1,1,1,1,1,1,1,1,1,1,1,1,1,1,1,1,1,1,1,1,1,1,1,1,1,1,1,1,1,1,1,1,1,1,1,1,1,1,
1,1,1,1,1,1,1,1,1,1,1,1,1,1,1,1,1,1,1,1,1,1,1,1,1,1,1,1,1,1,1,1,1,1,1,1,1,1,1,1,1,1,1,1,1,1,1,1,1,1,1,1,1,1,1,1,1,1,1,1,1,1,1,1,1,1,1,1,1,1,1,1,1,1,1,1,1,1,1,1,
1,1,1,1,1,1,1,1,1,1,1,1,1,1,1,1,1,1,1,1,1,1,1,1,1,1,1,1,1,1,1,1,1,1,1,1,1,1,1,1,1,1,1,1,1,1,1,1,1,1,1,1,1,1,1,1,1,1,1,1,1,1,1,1,1,1,1,1,1,1,1,1,1,1,1,1,1,1,1,1,
1,1,1,1,1,1,1,1,1,1,1,1,1,1,1,1,1,1,1,1,1,1,1,1,1,1,1,1,1,1,1,1,1,1,1,1,1,1,1,1,1,1,1,1,1,1,1,1,1,1,1,1,1,1,1,1,1,1,1,1,1,1,1,1,1,1,1,1,1,1,1,1,1,1,1,1,1,1,1,1,
1,1,1,1,1,1,1,1,1,1,1,1,1,1,1,1,1,1,1,1,1,1,1,1,1,1,1,1,1,1,1,1,1,1,1,1,1,1,1,1,1,1,1,1,1,1,1,1,1,1,1,1,1,1,1,1,1,1,1,1,1,1,1,1,1,1,1,1,1,1,1,1,1,1,1,1,1,1,1,1,
1,1,1,1,1,1,1,1,1,1,1,1,1,1,1,1,1,1,1,1,1,1,1,1,1,1,1,1,1,1,1,1,1,1,1,1,1,1,1,1,1,1,1,1,1,1,1,1,1,1,1,1,1,1,1,1,1,1,1,1,1,1,1,1,1,1,1,1,1,1,1,1,1,1,1,1,1,1,1,1,
1,1,1,1,1,1,1,1,1,1,1,1,1,1,1,1,1,1,1,1,1,1,1,1,1,1,1,1,1,1,1,1,1,1,1,1,1,1,1,1,1,1,1,1,1,1,1,1,1,1,1,1,1,1,1,1,1,1,1,1,1,1,1,1,1,1,1,1,1,1,1,1,1,1,1,1,1,1,1,1,
1,1,1,1,1,1,1,1,1,1,1,1,1,1,1,1,1,1,1,1,1,1,1,1,1,1,1,1,1,1,1,1,1,1,1,1,1,1,1,1,1,1,1,1,1,1,1,1,1,1,1,1,1,1,1,1,1,1,1,1,1,1,1,1,1,1,1,1,1,1,1,1,1,1,1,1,1,1,1,1,
1,1,1,1,1,1,1,1,1,1,1,1,1,1,1,1,1,1,1,1,1,1,1,1,1,1,1,1,1,1,1,1,1,1,1,1,1,1,1,1,1,1,1,1,1,1,1,1,1,1,1,1,1,1,1,1,1,1,1,1,1,1,1,1,1,1,1,1,1,1,1,1,1,1,1,1,1,1,1,1,
1,1,1,1,1,1,1,1,1,1,1,1,1,1,1,1,1,1,1,1,1,1,1,1,1,1,1,1,1,1,1,1,1,1,1,1,1,1,1,1,1,1,1,1,1,1,1,1,1,1,1,1,1,1,1,1,1,1,1,1,1,1,1,1,1,1,1,1,1,1,1,1,1,1,1,1,1,1,1,1
</data>
 </layer>
 <objectgroup id="2" name="foam">
  <object id="1" type="foam" gid="1249" x="128" y="192" width="192" height="192"/>
  <object id="2" type="foam" gid="1249" x="192" y="192" width="192" height="192"/>
  <object id="3" type="foam" gid="1249" x="256" y="192" width="192" height="192"/>
  <object id="4" type="foam" gid="1249" x="320" y="192" width="192" height="192"/>
  <object id="5" type="foam" gid="1249" x="384" y="192" width="192" height="192"/>
  <object id="6" type="foam" gid="1249" x="448" y="192" width="192" height="192"/>
  <object id="7" type="foam" gid="1249" x="768" y="192" width="192" height="192"/>
  <object id="8" type="foam" gid="1249" x="832" y="192" width="192" height="192"/>
  <object id="9" type="foam" gid="1249" x="896" y="192" width="192" height="192"/>
  <object id="10" type="foam" gid="1249" x="960" y="192" width="192" height="192"/>
  <object id="11" type="foam" gid="1249" x="1024" y="192" width="192" height="192"/>
  <object id="12" type="foam" gid="1249" x="1088" y="192" width="192" height="192"/>
  <object id="13" type="foam" gid="1249" x="1152" y="192" width="192" height="192"/>
  <object id="14" type="foam" gid="1249" x="1216" y="192" width="192" height="192"/>
  <object id="15" type="foam" gid="1249" x="1280" y="192" width="192" height="192"/>
  <object id="16" type="foam" gid="1249" x="1344" y="192" width="192" height="192"/>
  <object id="17" type="foam" gid="1249" x="1408" y="192" width="192" height="192"/>
  <object id="18" type="foam" gid="1249" x="1472" y="192" width="192" height="192"/>
  <object id="19" type="foam" gid="1249" x="1536" y="192" width="192" height="192"/>
  <object id="20" type="foam" gid="1249" x="1600" y="192" width="192" height="192"/>
  <object id="21" type="foam" gid="1249" x="1856" y="192" width="192" height="192"/>
  <object id="22" type="foam" gid="1249" x="1920" y="192" width="192" height="192"/>
  <object id="23" type="foam" gid="1249" x="1984" y="192" width="192" height="192"/>
  <object id="24" type="foam" gid="1249" x="2048" y="192" width="192" height="192"/>
  <object id="25" type="foam" gid="1249" x="2112" y="192" width="192" height="192"/>
  <object id="26" type="foam" gid="1249" x="2176" y="192" width="192" height="192"/>
  <object id="27" type="foam" gid="1249" x="2240" y="192" width="192" height="192"/>
  <object id="28" type="foam" gid="1249" x="64" y="256" width="192" height="192"/>
  <object id="29" type="foam" gid="1249" x="512" y="256" width="192" height="192"/>
  <object id="30" type="foam" gid="1249" x="576" y="256" width="192" height="192"/>
  <object id="31" type="foam" gid="1249" x="640" y="256" width="192" height="192"/>
  <object id="32" type="foam" gid="1249" x="704" y="256" width="192" height="192"/>
  <object id="33" type="foam" gid="1249" x="1664" y="256" width="192" height="192"/>
  <object id="34" type="foam" gid="1249" x="1728" y="256" width="192" height="192"/>
  <object id="35" type="foam" gid="1249" x="1792" y="256" width="192" height="192"/>
  <object id="36" type="foam" gid="1249" x="2304" y="256" width="192" height="192"/>
  <object id="37" type="foam" gid="1249" x="0" y="320" width="192" height="192"/>
  <object id="38" type="foam" gid="1249" x="2368" y="320" width="192" height="192"/>
  <object id="39" type="foam" gid="1249" x="0" y="384" width="192" height="192"/>
  <object id="40" type="foam" gid="1249" x="2368" y="384" width="192" height="192"/>
  <object id="41" type="foam" gid="1249" x="0" y="448" width="192" height="192"/>
  <object id="42" type="foam" gid="1249" x="2368" y="448" width="192" height="192"/>
  <object id="43" type="foam" gid="1249" x="0" y="512" width="192" height="192"/>
  <object id="44" type="foam" gid="1249" x="2368" y="512" width="192" height="192"/>
  <object id="45" type="foam" gid="1249" x="64" y="576" width="192" height="192"/>
  <object id="46" type="foam" gid="1249" x="2304" y="576" width="192" height="192"/>
  <object id="47" type="foam" gid="1249" x="64" y="640" width="192" height="192"/>
  <object id="48" type="foam" gid="1249" x="2304" y="640" width="192" height="192"/>
  <object id="49" type="foam" gid="1249" x="64" y="704" width="192" height="192"/>
  <object id="50" type="foam" gid="1249" x="2368" y="704" width="192" height="192"/>
  <object id="51" type="foam" gid="1249" x="0" y="768" width="192" height="192"/>
  <object id="52" type="foam" gid="1249" x="2368" y="768" width="192" height="192"/>
  <object id="53" type="foam" gid="1249" x="0" y="832" width="192" height="192"/>
  <object id="54" type="foam" gid="1249" x="2368" y="832" width="192" height="192"/>
  <object id="55" type="foam" gid="1249" x="0" y="896" width="192" height="192"/>
  <object id="56" type="foam" gid="1249" x="2368" y="896" width="192" height="192"/>
  <object id="57" type="foam" gid="1249" x="0" y="960" width="192" height="192"/>
  <object id="58" type="foam" gid="1249" x="2368" y="960" width="192" height="192"/>
  <object id="59" type="foam" gid="1249" x="0" y="1024" width="192" height="192"/>
  <object id="60" type="foam" gid="1249" x="128" y="1024" width="192" height="192"/>
  <object id="61" type="foam" gid="1249" x="192" y="1024" width="192" height="192"/>
  <object id="62" type="foam" gid="1249" x="256" y="1024" width="192" height="192"/>
  <object id="63" type="foam" gid="1249" x="2368" y="1024" width="192" height="192"/>
  <object id="64" type="foam" gid="1249" x="0" y="1088" width="192" height="192"/>
  <object id="65" type="foam" gid="1249" x="64" y="1088" width="192" height="192"/>
  <object id="66" type="foam" gid="1249" x="320" y="1088" width="192" height="192"/>
  <object id="67" type="foam" gid="1249" x="2304" y="1088" width="192" height="192"/>
  <object id="68" type="foam" gid="1249" x="0" y="1152" width="192" height="192"/>
  <object id="69" type="foam" gid="1249" x="384" y="1152" width="192" height="192"/>
  <object id="70" type="foam" gid="1249" x="2304" y="1152" width="192" height="192"/>
  <object id="71" type="foam" gid="1249" x="0" y="1216" width="192" height="192"/>
  <object id="72" type="foam" gid="1249" x="384" y="1216" width="192" height="192"/>
  <object id="73" type="foam" gid="1249" x="2368" y="1216" width="192" height="192"/>
  <object id="74" type="foam" gid="1249" x="0" y="1280" width="192" height="192"/>
  <object id="75" type="foam" gid="1249" x="384" y="1280" width="192" height="192"/>
  <object id="76" type="foam" gid="1249" x="2368" y="1280" width="192" height="192"/>
  <object id="77" type="foam" gid="1249" x="0" y="1344" width="192" height="192"/>
  <object id="78" type="foam" gid="1249" x="384" y="1344" width="192" height="192"/>
  <object id="79" type="foam" gid="1249" x="2368" y="1344" width="192" height="192"/>
  <object id="80" type="foam" gid="1249" x="64" y="1408" width="192" height="192"/>
  <object id="81" type="foam" gid="1249" x="320" y="1408" width="192" height="192"/>
  <object id="82" type="foam" gid="1249" x="768" y="1408" width="192" height="192"/>
  <object id="83" type="foam" gid="1249" x="832" y="1408" width="192" height="192"/>
  <object id="84" type="foam" gid="1249" x="896" y="1408" width="192" height="192"/>
  <object id="85" type="foam" gid="1249" x="1472" y="1408" width="192" height="192"/>
  <object id="86" type="foam" gid="1249" x="1536" y="1408" width="192" height="192"/>
  <object id="87" type="foam" gid="1249" x="1600" y="1408" width="192" height="192"/>
  <object id="88" type="foam" gid="1249" x="1664" y="1408" width="192" height="192"/>
  <object id="89" type="foam" gid="1249" x="2240" y="1408" width="192" height="192"/>
  <object id="90" type="foam" gid="1249" x="2304" y="1408" width="192" height="192"/>
  <object id="91" type="foam" gid="1249" x="192" y="1472" width="192" height="192"/>
  <object id="92" type="foam" gid="1249" x="256" y="1472" width="192" height="192"/>
  <object id="93" type="foam" gid="1249" x="320" y="1472" width="192" height="192"/>
  <object id="94" type="foam" gid="1249" x="384" y="1472" width="192" height="192"/>
  <object id="95" type="foam" gid="1249" x="448" y="1472" width="192" height="192"/>
  <object id="96" type="foam" gid="1249" x="512" y="1472" width="192" height="192"/>
  <object id="97" type="foam" gid="1249" x="576" y="1472" width="192" height="192"/>
  <object id="98" type="foam" gid="1249" x="640" y="1472" width="192" height="192"/>
  <object id="99" type="foam" gid="1249" x="704" y="1472" width="192" height="192"/>
  <object id="100" type="foam" gid="1249" x="960" y="1472" width="192" height="192"/>
  <object id="101" type="foam" gid="1249" x="1024" y="1472" width="192" height="192"/>
  <object id="102" type="foam" gid="1249" x="1088" y="1472" width="192" height="192"/>
  <object id="103" type="foam" gid="1249" x="1152" y="1472" width="192" height="192"/>
  <object id="104" type="foam" gid="1249" x="1216" y="1472" width="192" height="192"/>
  <object id="105" type="foam" gid="1249" x="1280" y="1472" width="192" height="192"/>
  <object id="106" type="foam" gid="1249" x="1344" y="1472" width="192" height="192"/>
  <object id="107" type="foam" gid="1249" x="1408" y="1472" width="192" height="192"/>
  <object id="108" type="foam" gid="1249" x="1728" y="1472" width="192" height="192"/>
  <object id="109" type="foam" gid="1249" x="1792" y="1472" width="192" height="192"/>
  <object id="110" type="foam" gid="1249" x="1856" y="1472" width="192" height="192"/>
  <object id="111" type="foam" gid="1249" x="1920" y="1472" width="192" height="192"/>
  <object id="112" type="foam" gid="1249" x="1984" y="1472" width="192" height="192"/>
  <object id="113" type="foam" gid="1249" x="2048" y="1472" width="192" height="192"/>
  <object id="114" type="foam" gid="1249" x="2112" y="1472" width="192" height="192"/>
  <object id="115" type="foam" gid="1249" x="2176" y="1472" width="192" height="192"/>
 </objectgroup>
 <layer id="3" name="sand" width="80" height="45">
  <data encoding="csv">
0,0,0,0,0,0,0,0,0,0,0,0,0,0,0,0,0,0,0,0,0,0,0,0,0,0,0,0,0,0,0,0,0,0,0,0,0,0,0,0,0,0,0,0,0,0,0,0,0,0,0,0,0,0,0,0,0,0,0,0,0,0,0,0,0,0,0,0,0,0,0,0,0,0,0,0,0,0,0,0,
0,0,0,0,0,0,0,0,0,0,0,0,0,0,0,0,0,0,0,0,0,0,0,0,0,0,0,0,0,0,0,0,0,0,0,0,0,0,0,0,0,0,0,0,0,0,0,0,0,0,0,0,0,0,0,0,0,0,0,0,0,0,0,0,0,0,0,0,0,0,0,0,0,0,0,0,0,0,0,0,
0,0,0,0,0,0,15,16,17,18,17,18,17,18,17,18,19,20,0,0,0,0,0,0,0,0,15,16,17,18,17,18,17,18,17,18,17,18,17,18,17,18,17,18,17,18,17,18,17,18,17,18,19,20,0,0,0,0,0,0,15,16,17,18,17,18,17,18,17,18,17,18,19,20,0,0,0,0,0,0,
0,0,0,0,0,0,35,36,37,38,37,38,37,38,37,38,39,40,0,0,0,0,0,0,0,0,35,36,37,38,37,38,37,38,37,38,37,38,37,38,37,38,37,38,37,38,37,38,37,38,37,38,39,40,0,0,0,0,0,0,35,36,37,38,37,38,37,38,37,38,37,38,39,40,0,0,0,0,0,0,
0,0,0,0,15,16,57,58,57,58,57,58,57,58,57,58,57,58,17,18,17,18,17,18,17,18,57,58,57,58,57,58,57,58,57,58,57,58,57,58,57,58,57,58,57,58,57,58,57,58,57,58,57,58,17,18,17,18,17,18,57,58,57,58,57,58,57,58,57,58,57,58,57,58,19,20,0,0,0,0,
0,0,0,0,35,36,77,78,77,78,77,78,77,78,77,78,77,78,37,38,37,38,37,38,37,38,77,78,77,78,77,78,77,78,77,78,77,78,77,78,77,78,77,78,77,78,77,78,77,78,77,78,77,78,37,38,37,38,37,38,77,78,77,78,77,78,77,78,77,78,77,78,77,78,39,40,0,0,0,0,
0,0,15,16,57,58,57,58,57,58,57,58,57,58,57,58,57,58,57,58,57,58,57,58,57,58,57,58,57,58,57,58,57,58,57,58,57,58,57,58,57,58,57,58,57,58,57,58,57,58,57,58,57,58,57,58,57,58,57,58,57,58,57,58,57,58,57,58,57,58,57,58,57,58,57,58,19,20,0,0,
0,0,35,36,77,78,77,78,77,78,77,78,77,78,77,78,77,78,77,78,77,78,77,78,77,78,77,78,77,78,77,78,77,78,77,78,77,78,77,78,77,78,77,78,77,78,77,78,77,78,77,78,77,78,77,78,77,78,77,78,77,78,77,78,77,78,77,78,77,78,77,78,77,78,77,78,39,40,0,0,
0,0,55,56,57,58,57,58,57,58,57,58,57,58,57,58,57,58,57,58,57,58,57,58,57,58,57,58,57,58,57,58,57,58,57,58,57,58,57,58,57,58,57,58,57,58,57,58,57,58,57,58,57,58,57,58,57,58,57,58,57,58,57,58,57,58,57,58,57,58,57,58,57,58,57,58,59,60,0,0,
0,0,75,76,77,78,77,78,77,78,77,78,77,78,77,78,77,78,77,78,77,78,77,78,77,78,77,78,77,78,77,78,77,78,77,78,77,78,77,78,77,78,77,78,77,78,77,78,77,78,77,78,77,78,77,78,77,78,77,78,77,78,77,78,77,78,77,78,77,78,77,78,77,78,77,78,79,80,0,0,
0,0,55,56,57,58,57,58,57,58,57,58,57,58,57,58,57,58,57,58,57,58,57,58,57,58,57,58,57,58,57,58,57,58,57,58,57,58,57,58,57,58,57,58,57,58,57,58,57,58,57,58,57,58,57,58,57,58,57,58,57,58,57,58,57,58,57,58,57,58,57,58,57,58,57,58,59,60,0,0,
0,0,75,76,77,78,77,78,77,78,77,78,77,78,77,78,77,78,77,78,77,78,77,78,77,78,77,78,77,78,77,78,77,78,77,78,77,78,77,78,77,78,77,78,77,78,77,78,77,78,77,78,77,78,77,78,77,78,77,78,77,78,77,78,77,78,77,78,77,78,77,78,77,78,77,78,79,80,0,0,
0,0,95,96,57,58,57,58,57,58,57,58,57,58,57,58,57,58,57,58,57,58,57,58,57,58,57,58,57,58,57,58,57,58,57,58,57,58,57,58,57,58,57,58,57,58,57,58,57,58,57,58,57,58,57,58,57,58,57,58,57,58,57,58,57,58,57,58,57,58,57,58,57,58,57,58,99,100,0,0,
0,0,115,116,77,78,77,78,77,78,77,78,77,78,77,78,77,78,77,78,77,78,77,78,77,78,77,78,77,78,77,78,77,78,77,78,77,78,77,78,77,78,77,78,77,78,77,78,77,78,77,78,77,78,77,78,77,78,77,78,77,78,77,78,77,78,77,78,77,78,77,78,77,78,77,78,119,120,0,0,
0,0,0,0,55,56,57,58,57,58,57,58,57,58,57,58,57,58,57,58,57,58,57,58,57,58,57,58,57,58,57,58,57,58,57,58,57,58,57,58,57,58,57,58,57,58,57,58,57,58,57,58,57,58,57,58,57,58,57,58,57,58,57,58,57,58,57,58,57,58,57,58,57,58,59,60,0,0,0,0,
0,0,0,0,75,76,77,78,77,78,77,78,77,78,77,78,77,78,77,78,77,78,77,78,77,78,77,78,77,78,77,78,77,78,77,78,77,78,77,78,77,78,77,78,77,78,77,78,77,78,77,78,77,78,77,78,77,78,77,78,77,78,77,78,77,78,77,78,77,78,77,78,77,78,79,80,0,0,0,0,
0,0,0,0,55,56,57,58,57,58,57,58,57,58,57,58,57,58,57,58,57,58,57,58,57,58,57,58,57,58,57,58,57,58,57,58,57,58,57,58,57,58,57,58,57,58,57,58,57,58,57,58,57,58,57,58,57,58,57,58,57,58,57,58,57,58,57,58,57,58,57,58,57,58,59,60,0,0,0,0,
0,0,0,0,75,76,77,78,77,78,77,78,77,78,77,78,77,78,77,78,77,78,77,78,77,78,77,78,77,78,77,78,77,78,77,78,77,78,77,78,77,78,77,78,77,78,77,78,77,78,77,78,77,78,77,78,77,78,77,78,77,78,77,78,77,78,77,78,77,78,77,78,77,78,79,80,0,0,0,0,
0,0,0,0,55,56,57,58,57,58,57,58,57,58,57,58,57,58,57,58,57,58,57,58,57,58,57,58,57,58,57,58,57,58,57,58,57,58,57,58,57,58,57,58,57,58,57,58,57,58,57,58,57,58,57,58,57,58,57,58,57,58,57,58,57,58,57,58,57,58,57,58,57,58,57,58,19,20,0,0,
0,0,0,0,75,76,77,78,77,78,77,78,77,78,77,78,77,78,77,78,77,78,77,78,77,78,77,78,77,78,77,78,77,78,77,78,77,78,77,78,77,78,77,78,77,78,77,78,77,78,77,78,77,78,77,78,77,78,77,78,77,78,77,78,77,78,77,78,77,78,77,78,77,78,77,78,39,40,0,0,
0,0,15,16,57,58,57,58,57,58,57,58,57,58,57,58,57,58,57,58,57,58,57,58,57,58,57,58,57,58,57,58,57,58,57,58,57,58,57,58,57,58,57,58,57,58,57,58,57,58,57,58,57,58,57,58,57,58,57,58,57,58,57,58,57,58,57,58,57,58,57,58,57,58,57,58,59,60,0,0,
0,0,35,36,77,78,77,78,77,78,77,78,77,78,77,78,77,78,77,78,77,78,77,78,77,78,77,78,77,78,77,78,77,78,77,78,77,78,77,78,77,78,77,78,77,78,77,78,77,78,77,78,77,78,77,78,77,78,77,78,77,78,77,78,77,78,77,78,77,78,77,78,77,78,77,78,79,80,0,0,
0,0,55,56,57,58,57,58,57,58,57,58,57,58,57,58,57,58,57,58,57,58,57,58,57,58,57,58,57,58,57,58,57,58,57,58,57,58,57,58,57,58,57,58,57,58,57,58,57,58,57,58,57,58,57,58,57,58,57,58,57,58,57,58,57,58,57,58,57,58,57,58,57,58,57,58,59,60,0,0,
0,0,75,76,77,78,77,78,77,78,77,78,77,78,77,78,77,78,77,78,77,78,77,78,77,78,77,78,77,78,77,78,77,78,77,78,77,78,77,78,77,78,77,78,77,78,77,78,77,78,77,78,77,78,77,78,77,78,77,78,77,78,77,78,77,78,77,78,77,78,77,78,77,78,77,78,79,80,0,0,
0,0,55,56,57,58,57,58,57,58,57,58,57,58,57,58,57,58,57,58,57,58,57,58,57,58,57,58,57,58,57,58,57,58,57,58,57,58,57,58,57,58,57,58,57,58,57,58,57,58,57,58,57,58,57,58,57,58,57,58,57,58,57,58,57,58,57,58,57,58,57,58,57,58,57,58,59,60,0,0,
0,0,75,76,77,78,77,78,77,78,77,78,77,78,77,78,77,78,77,78,77,78,77,78,77,78,77,78,77,78,77,78,77,78,77,78,77,78,77,78,77,78,77,78,77,78,77,78,77,78,77,78,77,78,77,78,77,78,77,78,77,78,77,78,77,78,77,78,77,78,77,78,77,78,77,78,79,80,0,0,
0,0,55,56,57,58,57,58,57,58,57,58,57,58,57,58,57,58,57,58,57,58,57,58,57,58,57,58,57,58,57,58,57,58,57,58,57,58,57,58,57,58,57,58,57,58,57,58,57,58,57,58,57,58,57,58,57,58,57,58,57,58,57,58,57,58,57,58,57,58,57,58,57,58,57,58,59,60,0,0,
0,0,75,76,77,78,77,78,77,78,77,78,77,78,77,78,77,78,77,78,77,78,77,78,77,78,77,78,77,78,77,78,77,78,77,78,77,78,77,78,77,78,77,78,77,78,77,78,77,78,77,78,77,78,77,78,77,78,77,78,77,78,77,78,77,78,77,78,77,78,77,78,77,78,77,78,79,80,0,0,
0,0,55,56,57,58,97,98,97,98,97,98,57,58,57,58,57,58,57,58,57,58,57,58,57,58,57,58,57,58,57,58,57,58,57,58,57,58,57,58,57,58,57,58,57,58,57,58,57,58,57,58,57,58,57,58,57,58,57,58,57,58,57,58,57,58,57,58,57,58,57,58,57,58,57,58,99,100,0,0,
0,0,75,76,77,78,117,118,117,118,117,118,77,78,77,78,77,78,77,78,77,78,77,78,77,78,77,78,77,78,77,78,77,78,77,78,77,78,77,78,77,78,77,78,77,78,77,78,77,78,77,78,77,78,77,78,77,78,77,78,77,78,77,78,77,78,77,78,77,78,77,78,77,78,77,78,119,120,0,0,
0,0,55,56,99,100,0,0,0,0,0,0,95,96,57,58,57,58,57,58,57,58,57,58,57,58,57,58,57,58,57,58,57,58,57,58,57,58,57,58,57,58,57,58,57,58,57,58,57,58,57,58,57,58,57,58,57,58,57,58,57,58,57,58,57,58,57,58,57,58,57,58,57,58,59,60,0,0,0,0,
0,0,75,76,119,120,0,0,0,0,0,0,115,116,77,78,77,78,77,78,77,78,77,78,77,78,77,78,77,78,77,78,77,78,77,78,77,78,77,78,77,78,77,78,77,78,77,78,77,78,77,78,77,78,77,78,77,78,77,78,77,78,77,78,77,78,77,78,77,78,77,78,77,78,79,80,0,0,0,0,
0,0,61,62,0,0,0,0,0,0,0,0,0,0,55,56,57,58,57,58,57,58,57,58,57,58,57,58,57,58,57,58,57,58,57,58,57,58,57,58,57,58,57,58,57,58,57,58,57,58,57,58,57,58,57,58,57,58,57,58,57,58,57,58,57,58,57,58,57,58,57,58,57,58,59,60,0,0,0,0,
0,0,81,82,0,0,0,0,0,0,0,0,0,0,75,76,77,78,77,78,77,78,77,78,77,78,77,78,77,78,77,78,77,78,77,78,77,78,77,78,77,78,77,78,77,78,77,78,77,78,77,78,77,78,77,78,77,78,77,78,77,78,77,78,77,78,77,78,77,78,77,78,77,78,79,80,0,0,0,0,
0,0,61,62,0,0,0,0,0,0,0,0,0,0,55,56,57,58,57,58,57,58,57,58,57,58,57,58,57,58,57,58,57,58,57,58,57,58,57,58,57,58,57,58,57,58,57,58,57,58,57,58,57,58,57,58,57,58,57,58,57,58,57,58,57,58,57,58,57,58,57,58,57,58,57,58,19,20,0,0,
0,0,81,82,0,0,0,0,0,0,0,0,0,0,75,76,77,78,77,78,77,78,77,78,77,78,77,78,77,78,77,78,77,78,77,78,77,78,77,78,77,78,77,78,77,78,77,78,77,78,77,78,77,78,77,78,77,78,77,78,77,78,77,78,77,78,77,78,77,78,77,78,77,78,77,78,39,40,0,0,
0,0,61,62,0,0,0,0,0,0,0,0,0,0,55,56,57,58,57,58,57,58,57,58,57,58,57,58,57,58,57,58,57,58,57,58,57,58,57,58,57,58,57,58,57,58,57,58,57,58,57,58,57,58,57,58,57,58,57,58,57,58,57,58,57,58,57,58,57,58,57,58,57,58,57,58,59,60,0,0,
0,0,81,82,0,0,0,0,0,0,0,0,0,0,75,76,77,78,77,78,77,78,77,78,77,78,77,78,77,78,77,78,77,78,77,78,77,78,77,78,77,78,77,78,77,78,77,78,77,78,77,78,77,78,77,78,77,78,77,78,77,78,77,78,77,78,77,78,77,78,77,78,77,78,77,78,79,80,0,0,
0,0,101,102,0,0,0,0,0,0,0,0,0,0,55,56,57,58,57,58,57,58,57,58,57,58,57,58,57,58,57,58,57,58,57,58,57,58,57,58,57,58,57,58,57,58,57,58,57,58,57,58,57,58,57,58,57,58,57,58,57,58,57,58,57,58,57,58,57,58,57,58,57,58,57,58,99,100,0,0,
0,0,121,122,0,0,0,0,0,0,0,0,0,0,75,76,77,78,77,78,77,78,77,78,77,78,77,78,77,78,77,78,77,78,77,78,77,78,77,78,77,78,77,78,77,78,77,78,77,78,77,78,77,78,77,78,77,78,77,78,77,78,77,78,77,78,77,78,77,78,77,78,77,78,77,78,119,120,0,0,
0,0,0,0,141,142,0,0,0,0,0,0,15,16,57,58,57,58,57,58,57,58,57,58,57,58,97,98,97,98,97,98,57,58,57,58,57,58,57,58,57,58,57,58,57,58,57,58,97,98,97,98,97,98,97,98,57,58,57,58,57,58,57,58,57,58,57,58,57,58,57,58,97,98,99,100,0,0,0,0,
0,0,0,0,161,162,0,0,0,0,0,0,35,36,77,78,77,78,77,78,77,78,77,78,77,78,117,118,117,118,117,118,77,78,77,78,77,78,77,78,77,78,77,78,77,78,77,78,117,118,117,118,117,118,117,118,77,78,77,78,77,78,77,78,77,78,77,78,77,78,77,78,117,118,119,120,0,0,0,0,
0,0,0,0,0,0,0,0,135,136,137,138,97,98,97,98,97,98,97,98,97,98,97,98,99,100,0,0,0,0,0,0,95,96,97,98,97,98,97,98,97,98,97,98,97,98,99,100,0,0,0,0,0,0,0,0,95,96,97,98,97,98,97,98,97,98,97,98,97,98,99,100,0,0,0,0,0,0,0,0,
0,0,0,0,0,0,0,0,155,156,157,158,117,118,117,118,117,118,117,118,117,118,117,118,119,120,0,0,0,0,0,0,115,116,117,118,117,118,117,118,117,118,117,118,117,118,119,120,0,0,0,0,0,0,0,0,115,116,117,118,117,118,117,118,117,118,117,118,117,118,119,120,0,0,0,0,0,0,0,0,
0,0,0,0,0,0,0,0,0,0,0,0,0,0,0,0,0,0,0,0,0,0,0,0,0,0,0,0,0,0,0,0,0,0,0,0,0,0,0,0,0,0,0,0,0,0,0,0,0,0,0,0,0,0,0,0,0,0,0,0,0,0,0,0,0,0,0,0,0,0,0,0,0,0,0,0,0,0,0,0
</data>
 </layer>
 <layer id="4" name="grass" width="80" height="45">
  <data encoding="csv">
0,0,0,0,0,0,0,0,0,0,0,0,0,0,0,0,0,0,0,0,0,0,0,0,0,0,0,0,0,0,0,0,0,0,0,0,0,0,0,0,0,0,0,0,0,0,0,0,0,0,0,0,0,0,0,0,0,0,0,0,0,0,0,0,0,0,0,0,0,0,0,0,0,0,0,0,0,0,0,0,
0,0,0,0,0,0,0,0,0,0,0,0,0,0,0,0,0,0,0,0,0,0,0,0,0,0,0,0,0,0,0,0,0,0,0,0,0,0,0,0,0,0,0,0,0,0,0,0,0,0,0,0,0,0,0,0,0,0,0,0,0,0,0,0,0,0,0,0,0,0,0,0,0,0,0,0,0,0,0,0,
0,0,0,0,0,0,165,166,167,168,167,168,167,168,167,168,169,170,0,0,0,0,0,0,0,0,165,166,167,168,167,168,167,168,167,168,167,168,167,168,167,168,167,168,167,168,167,168,167,168,167,168,169,170,0,0,0,0,0,0,165,166,167,168,167,168,167,168,167,168,167,168,169,170,0,0,0,0,0,0,
0,0,0,0,0,0,183,184,185,186,185,186,185,186,185,186,187,188,0,0,0,0,0,0,0,0,183,184,185,186,185,186,185,186,185,186,185,186,185,186,185,186,185,186,185,186,185,186,185,186,185,186,187,188,0,0,0,0,0,0,183,184,185,186,185,186,185,186,185,186,185,186,187,188,0,0,0,0,0,0,
0,0,0,0,165,166,203,204,203,204,203,204,203,204,203,204,203,204,167,168,167,168,167,168,167,168,203,204,203,204,203,204,203,204,203,204,203,204,203,204,203,204,203,204,203,204,203,204,203,204,203,204,203,204,167,168,167,168,167,168,203,204,203,204,203,204,203,204,203,204,203,204,203,204,169,170,0,0,0,0,
0,0,0,0,183,184,221,222,221,222,221,222,221,222,221,222,221,222,185,186,185,186,185,186,185,186,221,222,221,222,221,222,221,222,221,222,221,222,221,222,221,222,221,222,221,222,221,222,221,222,221,222,221,222,185,186,185,186,185,186,221,222,221,222,221,222,221,222,221,222,221,222,221,222,187,188,0,0,0,0,
0,0,165,166,203,204,203,204,203,204,203,204,203,204,203,204,239,240,239,240,203,204,203,204,203,204,203,204,203,204,203,204,203,204,203,204,203,204,203,204,203,204,203,204,203,204,203,204,203,204,203,204,203,204,203,204,203,204,203,204,203,204,203,204,203,204,203,204,203,204,203,204,203,204,203,204,169,170,0,0,
0,0,183,184,221,222,221,222,221,222,221,222,221,222,221,222,257,258,257,258,221,222,221,222,221,222,221,222,221,222,221,222,221,222,221,222,221,222,221,222,221,222,221,222,221,222,221,222,221,222,221,222,221,222,221,222,221,222,221,222,221,222,221,222,221,222,221,222,221,222,221,222,221,222,221,222,187,188,0,0,
0,0,201,202,203,204,203,204,203,204,203,204,203,204,205,206,0,0,0,0,201,202,203,204,203,204,203,204,203,204,203,204,203,204,203,204,203,204,203,204,203,204,203,204,203,204,203,204,203,204,203,204,203,204,203,204,203,204,203,204,203,204,203,204,203,204,203,204,203,204,203,204,203,204,203,204,205,206,0,0,
0,0,219,220,221,222,221,222,221,222,221,222,221,222,223,224,0,0,0,0,219,220,221,222,221,222,221,222,221,222,221,222,221,222,221,222,221,222,221,222,221,222,221,222,221,222,221,222,221,222,221,222,221,222,221,222,221,222,221,222,221,222,221,222,221,222,221,222,221,222,221,222,221,222,221,222,223,224,0,0,
0,0,201,202,203,204,203,204,203,204,203,204,203,204,205,206,0,0,0,0,201,202,203,204,203,204,203,204,203,204,203,204,203,204,203,204,203,204,203,204,203,204,203,204,203,204,203,204,203,204,239,240,239,240,239,240,203,204,203,204,239,240,239,240,203,204,203,204,203,204,203,204,203,204,203,204,205,206,0,0,
0,0,219,220,221,222,221,222,221,222,221,222,221,222,223,224,0,0,0,0,219,220,221,222,221,222,221,222,221,222,221,222,221,222,221,222,221,222,221,222,221,222,221,222,221,222,221,222,221,222,257,258,257,258,257,258,221,222,221,222,257,258,257,258,221,222,221,222,221,222,221,222,221,222,221,222,223,224,0,0,
0,0,237,238,203,204,203,204,203,204,203,204,203,204,205,206,0,0,0,0,201,202,203,204,203,204,203,204,203,204,203,204,203,204,203,204,203,204,203,204,203,204,203,204,203,204,203,204,241,242,0,0,0,0,0,0,201,202,205,206,0,0,0,0,201,202,203,204,203,204,203,204,203,204,203,204,241,242,0,0,
0,0,255,256,221,222,221,222,221,222,221,222,221,222,223,224,0,0,0,0,219,220,221,222,221,222,221,222,221,222,221,222,221,222,221,222,221,222,221,222,221,222,221,222,221,222,221,222,259,260,0,0,0,0,0,0,219,220,223,224,0,0,0,0,219,220,221,222,221,222,221,222,221,222,221,222,259,260,0,0,
0,0,0,0,201,202,203,204,203,204,203,204,203,204,205,206,0,0,0,0,201,202,203,204,203,204,203,204,203,204,239,240,239,240,239,240,239,240,239,240,239,240,239,240,239,240,241,242,0,0,0,0,0,0,0,0,201,202,205,206,0,0,0,0,201,202,203,204,203,204,203,204,203,204,205,206,0,0,0,0,
0,0,0,0,219,220,221,222,221,222,221,222,221,222,223,224,0,0,0,0,219,220,221,222,221,222,221,222,221,222,257,258,257,258,257,258,257,258,257,258,257,258,257,258,257,258,259,260,0,0,0,0,0,0,0,0,219,220,223,224,0,0,0,0,219,220,221,222,221,222,221,222,221,222,223,224,0,0,0,0,
0,0,0,0,201,202,203,204,203,204,203,204,203,204,205,206,0,0,0,0,201,202,203,204,203,204,203,204,205,206,0,0,0,0,0,0,0,0,0,0,0,0,0,0,0,0,0,0,0,0,0,0,0,0,0,0,201,202,205,206,0,0,0,0,201,202,203,204,203,204,203,204,203,204,205,206,0,0,0,0,
0,0,0,0,219,220,221,222,221,222,221,222,221,222,223,224,0,0,0,0,219,220,221,222,221,222,221,222,223,224,0,0,0,0,0,0,0,0,0,0,0,0,0,0,0,0,0,0,0,0,0,0,0,0,0,0,219,220,223,224,0,0,0,0,219,220,221,222,221,222,221,222,221,222,223,224,0,0,0,0,
0,0,0,0,201,202,203,204,203,204,203,204,203,204,205,206,0,0,0,0,201,202,203,204,203,204,203,204,205,206,0,0,0,0,0,0,0,0,0,0,0,0,0,0,0,0,0,0,0,0,165,166,167,168,167,168,203,204,205,206,0,0,0,0,201,202,203,204,203,204,203,204,203,204,203,204,169,170,0,0,
0,0,0,0,219,220,221,222,221,222,221,222,221,222,223,224,0,0,0,0,219,220,221,222,221,222,221,222,223,224,0,0,0,0,0,0,0,0,0,0,0,0,0,0,0,0,0,0,0,0,183,184,185,186,185,186,221,222,223,224,0,0,0,0,219,220,221,222,221,222,221,222,221,222,221,222,187,188,0,0,
0,0,165,166,239,240,239,240,239,240,239,240,239,240,241,242,0,0,0,0,237,238,239,240,239,240,239,240,241,242,0,0,0,0,0,0,0,0,0,0,0,0,0,0,0,0,0,0,0,0,237,238,239,240,239,240,239,240,241,242,0,0,0,0,237,238,239,240,239,240,239,240,239,240,239,240,205,206,0,0,
0,0,183,184,257,258,257,258,257,258,257,258,257,258,259,260,0,0,0,0,255,256,257,258,257,258,257,258,259,260,0,0,0,0,0,0,0,0,0,0,0,0,0,0,0,0,0,0,0,0,255,256,257,258,257,258,257,258,259,260,0,0,0,0,255,256,257,258,257,258,257,258,257,258,257,258,223,224,0,0,
0,0,207,208,0,0,0,0,0,0,0,0,0,0,0,0,0,0,0,0,0,0,0,0,0,0,0,0,0,0,0,0,0,0,0,0,0,0,0,0,0,0,0,0,0,0,0,0,0,0,0,0,0,0,0,0,0,0,0,0,0,0,0,0,0,0,0,0,0,0,0,0,0,0,0,0,207,208,0,0,
0,0,225,226,0,0,0,0,0,0,0,0,0,0,0,0,0,0,0,0,0,0,0,0,0,0,0,0,0,0,0,0,0,0,0,0,0,0,0,0,0,0,0,0,0,0,0,0,0,0,0,0,0,0,0,0,0,0,0,0,0,0,0,0,0,0,0,0,0,0,0,0,0,0,0,0,225,226,0,0,
0,0,207,208,0,0,0,0,0,0,0,0,0,0,0,0,0,0,0,0,0,0,0,0,0,0,0,0,0,0,0,0,0,0,0,0,0,0,0,0,0,0,0,0,0,0,0,0,0,0,0,0,0,0,0,0,0,0,0,0,0,0,0,0,0,0,0,0,0,0,0,0,0,0,0,0,207,208,0,0,
0,0,225,226,0,0,0,0,0,0,0,0,0,0,0,0,0,0,0,0,0,0,0,0,0,0,0,0,0,0,0,0,0,0,0,0,0,0,0,0,0,0,0,0,0,0,0,0,0,0,0,0,0,0,0,0,0,0,0,0,0,0,0,0,0,0,0,0,0,0,0,0,0,0,0,0,225,226,0,0,
0,0,207,208,0,0,0,0,0,0,0,0,0,0,0,0,0,0,0,0,0,0,0,0,0,0,165,166,169,170,0,0,0,0,0,0,0,0,0,0,0,0,0,0,0,0,0,0,0,0,165,166,167,168,167,168,167,168,167,168,167,168,167,168,167,168,167,168,167,168,167,168,167,168,167,168,205,206,0,0,
0,0,225,226,0,0,0,0,0,0,0,0,0,0,0,0,0,0,0,0,0,0,0,0,0,0,183,184,187,188,0,0,0,0,0,0,0,0,0,0,0,0,0,0,0,0,0,0,0,0,183,184,185,186,185,186,185,186,185,186,185,186,185,186,185,186,185,186,185,186,185,186,185,186,185,186,223,224,0,0,
0,0,207,208,0,0,0,0,0,0,0,0,0,0,0,0,0,0,0,0,0,0,0,0,0,0,201,202,205,206,0,0,0,0,0,0,0,0,0,0,0,0,0,0,0,0,0,0,0,0,201,202,203,204,203,204,203,204,203,204,203,204,203,204,203,204,203,204,203,204,203,204,203,204,203,204,241,242,0,0,
0,0,225,226,0,0,0,0,0,0,0,0,0,0,0,0,0,0,0,0,0,0,0,0,0,0,219,220,223,224,0,0,0,0,0,0,0,0,0,0,0,0,0,0,0,0,0,0,0,0,219,220,221,222,221,222,221,222,221,222,221,222,221,222,221,222,221,222,221,222,221,222,221,222,221,222,259,260,0,0,
0,0,201,202,277,278,0,0,0,0,0,0,273,274,167,168,167,168,167,168,167,168,167,168,167,168,203,204,203,204,167,168,167,168,167,168,169,170,0,0,0,0,165,166,167,168,167,168,167,168,203,204,203,204,203,204,203,204,203,204,203,204,203,204,203,204,203,204,203,204,203,204,203,204,205,206,0,0,0,0,
0,0,219,220,295,296,0,0,0,0,0,0,291,292,185,186,185,186,185,186,185,186,185,186,185,186,221,222,221,222,185,186,185,186,185,186,187,188,0,0,0,0,183,184,185,186,185,186,185,186,221,222,221,222,221,222,221,222,221,222,221,222,221,222,221,222,221,222,221,222,221,222,221,222,223,224,0,0,0,0,
0,0,207,208,0,0,0,0,0,0,0,0,0,0,201,202,203,204,203,204,203,204,203,204,203,204,203,204,203,204,203,204,203,204,203,204,205,206,0,0,0,0,237,238,239,240,239,240,239,240,239,240,239,240,239,240,239,240,239,240,239,240,239,240,203,204,203,204,203,204,203,204,203,204,205,206,0,0,0,0,
0,0,225,226,0,0,0,0,0,0,0,0,0,0,219,220,221,222,221,222,221,222,221,222,221,222,221,222,221,222,221,222,221,222,221,222,223,224,0,0,0,0,255,256,257,258,257,258,257,258,257,258,257,258,257,258,257,258,257,258,257,258,257,258,221,222,221,222,221,222,221,222,221,222,223,224,0,0,0,0,
0,0,207,208,0,0,0,0,0,0,0,0,0,0,201,202,203,204,203,204,203,204,239,240,239,240,239,240,239,240,239,240,239,240,239,240,241,242,0,0,0,0,0,0,0,0,0,0,0,0,0,0,0,0,0,0,0,0,0,0,0,0,0,0,201,202,203,204,203,204,203,204,203,204,203,204,169,170,0,0,
0,0,225,226,0,0,0,0,0,0,0,0,0,0,219,220,221,222,221,222,221,222,257,258,257,258,257,258,257,258,257,258,257,258,257,258,259,260,0,0,0,0,0,0,0,0,0,0,0,0,0,0,0,0,0,0,0,0,0,0,0,0,0,0,219,220,221,222,221,222,221,222,221,222,221,222,187,188,0,0,
0,0,207,208,0,0,0,0,0,0,0,0,0,0,201,202,203,204,203,204,205,206,0,0,0,0,0,0,0,0,0,0,0,0,0,0,0,0,0,0,0,0,165,166,167,168,167,168,167,168,167,168,167,168,167,168,167,168,167,168,167,168,167,168,203,204,203,204,203,204,203,204,203,204,203,204,205,206,0,0,
0,0,225,226,0,0,0,0,0,0,0,0,0,0,219,220,221,222,221,222,223,224,0,0,0,0,0,0,0,0,0,0,0,0,0,0,0,0,0,0,0,0,183,184,185,186,185,186,185,186,185,186,185,186,185,186,185,186,185,186,185,186,185,186,221,222,221,222,221,222,221,222,221,222,221,222,223,224,0,0,
0,0,243,244,0,0,0,0,0,0,0,0,0,0,201,202,203,204,203,204,203,204,167,168,167,168,167,168,167,168,167,168,167,168,167,168,169,170,0,0,0,0,201,202,203,204,203,204,203,204,203,204,203,204,203,204,203,204,203,204,203,204,203,204,203,204,203,204,203,204,203,204,203,204,203,204,241,242,0,0,
0,0,261,262,0,0,0,0,0,0,0,0,0,0,219,220,221,222,221,222,221,222,185,186,185,186,185,186,185,186,185,186,185,186,185,186,187,188,0,0,0,0,219,220,221,222,221,222,221,222,221,222,221,222,221,222,221,222,221,222,221,222,221,222,221,222,221,222,221,222,221,222,221,222,221,222,259,260,0,0,
0,0,0,0,279,280,0,0,0,0,0,0,273,274,239,240,239,240,239,240,239,240,239,240,239,240,239,240,239,240,239,240,239,240,239,240,241,242,0,0,0,0,237,238,239,240,239,240,239,240,239,240,239,240,239,240,239,240,239,240,239,240,239,240,239,240,239,240,239,240,239,240,239,240,241,242,0,0,0,0,
0,0,0,0,297,298,0,0,0,0,0,0,291,292,257,258,257,258,257,258,257,258,257,258,257,258,257,258,257,258,257,258,257,258,257,258,259,260,0,0,0,0,255,256,257,258,257,258,257,258,257,258,257,258,257,258,257,258,257,258,257,258,257,258,257,258,257,258,257,258,257,258,257,258,259,260,0,0,0,0,
0,0,0,0,0,0,0,0,0,0,0,0,0,0,0,0,0,0,0,0,0,0,0,0,0,0,0,0,0,0,0,0,0,0,0,0,0,0,0,0,0,0,0,0,0,0,0,0,0,0,0,0,0,0,0,0,0,0,0,0,0,0,0,0,0,0,0,0,0,0,0,0,0,0,0,0,0,0,0,0,
0,0,0,0,0,0,0,0,0,0,0,0,0,0,0,0,0,0,0,0,0,0,0,0,0,0,0,0,0,0,0,0,0,0,0,0,0,0,0,0,0,0,0,0,0,0,0,0,0,0,0,0,0,0,0,0,0,0,0,0,0,0,0,0,0,0,0,0,0,0,0,0,0,0,0,0,0,0,0,0,
0,0,0,0,0,0,0,0,0,0,0,0,0,0,0,0,0,0,0,0,0,0,0,0,0,0,0,0,0,0,0,0,0,0,0,0,0,0,0,0,0,0,0,0,0,0,0,0,0,0,0,0,0,0,0,0,0,0,0,0,0,0,0,0,0,0,0,0,0,0,0,0,0,0,0,0,0,0,0,0
</data>
 </layer>
 <layer id="5" name="bridge" width="80" height="45">
  <data encoding="csv">
0,0,0,0,0,0,0,0,0,0,0,0,0,0,0,0,0,0,0,0,0,0,0,0,0,0,0,0,0,0,0,0,0,0,0,0,0,0,0,0,0,0,0,0,0,0,0,0,0,0,0,0,0,0,0,0,0,0,0,0,0,0,0,0,0,0,0,0,0,0,0,0,0,0,0,0,0,0,0,0,
0,0,0,0,0,0,0,0,0,0,0,0,0,0,0,0,0,0,0,0,0,0,0,0,0,0,0,0,0,0,0,0,0,0,0,0,0,0,0,0,0,0,0,0,0,0,0,0,0,0,0,0,0,0,0,0,0,0,0,0,0,0,0,0,0,0,0,0,0,0,0,0,0,0,0,0,0,0,0,0,
0,0,0,0,0,0,0,0,0,0,0,0,0,0,0,0,0,0,0,0,0,0,0,0,0,0,0,0,0,0,0,0,0,0,0,0,0,0,0,0,0,0,0,0,0,0,0,0,0,0,0,0,0,0,0,0,0,0,0,0,0,0,0,0,0,0,0,0,0,0,0,0,0,0,0,0,0,0,0,0,
0,0,0,0,0,0,0,0,0,0,0,0,0,0,0,0,0,0,0,0,0,0,0,0,0,0,0,0,0,0,0,0,0,0,0,0,0,0,0,0,0,0,0,0,0,0,0,0,0,0,0,0,0,0,0,0,0,0,0,0,0,0,0,0,0,0,0,0,0,0,0,0,0,0,0,0,0,0,0,0,
0,0,0,0,0,0,0,0,0,0,0,0,0,0,0,0,0,0,0,0,0,0,0,0,0,0,0,0,0,0,0,0,0,0,0,0,0,0,0,0,0,0,0,0,0,0,0,0,0,0,0,0,0,0,0,0,0,0,0,0,0,0,0,0,0,0,0,0,0,0,0,0,0,0,0,0,0,0,0,0,
0,0,0,0,0,0,0,0,0,0,0,0,0,0,0,0,0,0,0,0,0,0,0,0,0,0,0,0,0,0,0,0,0,0,0,0,0,0,0,0,0,0,0,0,0,0,0,0,0,0,0,0,0,0,0,0,0,0,0,0,0,0,0,0,0,0,0,0,0,0,0,0,0,0,0,0,0,0,0,0,
0,0,0,0,0,0,0,0,0,0,0,0,0,0,0,0,0,0,0,0,0,0,0,0,0,0,0,0,0,0,0,0,0,0,0,0,0,0,0,0,0,0,0,0,0,0,0,0,0,0,0,0,0,0,0,0,0,0,0,0,0,0,0,0,0,0,0,0,0,0,0,0,0,0,0,0,0,0,0,0,
0,0,0,0,0,0,0,0,0,0,0,0,0,0,0,0,0,0,0,0,0,0,0,0,0,0,0,0,0,0,0,0,0,0,0,0,0,0,0,0,0,0,0,0,0,0,0,0,0,0,0,0,0,0,0,0,0,0,0,0,0,0,0,0,0,0,0,0,0,0,0,0,0,0,0,0,0,0,0,0,
0,0,0,0,0,0,0,0,0,0,0,0,0,0,0,0,0,0,0,0,0,0,0,0,0,0,0,0,0,0,0,0,0,0,0,0,0,0,0,0,0,0,0,0,0,0,0,0,0,0,0,0,0,0,0,0,0,0,0,0,0,0,0,0,0,0,0,0,0,0,0,0,0,0,0,0,0,0,0,0,
0,0,0,0,0,0,0,0,0,0,0,0,0,0,0,0,0,0,0,0,0,0,0,0,0,0,0,0,0,0,0,0,0,0,0,0,0,0,0,0,0,0,0,0,0,0,0,0,0,0,0,0,0,0,0,0,0,0,0,0,0,0,0,0,0,0,0,0,0,0,0,0,0,0,0,0,0,0,0,0,
0,0,0,0,0,0,0,0,0,0,0,0,0,0,0,0,0,0,0,0,0,0,0,0,0,0,0,0,0,0,0,0,0,0,0,0,0,0,0,0,0,0,0,0,0,0,0,0,0,0,0,0,0,0,0,0,0,0,0,0,0,0,0,0,0,0,0,0,0,0,0,0,0,0,0,0,0,0,0,0,
0,0,0,0,0,0,0,0,0,0,0,0,0,0,0,0,0,0,0,0,0,0,0,0,0,0,0,0,0,0,0,0,0,0,0,0,0,0,0,0,0,0,0,0,0,0,0,0,0,0,0,0,0,0,0,0,0,0,0,0,0,0,0,0,0,0,0,0,0,0,0,0,0,0,0,0,0,0,0,0,
0,0,0,0,0,0,0,0,0,0,0,0,0,0,0,0,0,0,0,0,0,0,0,0,0,0,0,0,0,0,0,0,0,0,0,0,0,0,0,0,0,0,0,0,0,0,0,0,0,0,0,0,0,0,0,0,0,0,0,0,0,0,0,0,0,0,0,0,0,0,0,0,0,0,0,0,0,0,0,0,
0,0,0,0,0,0,0,0,0,0,0,0,0,0,0,0,0,0,0,0,0,0,0,0,0,0,0,0,0,0,0,0,0,0,0,0,0,0,0,0,0,0,0,0,0,0,0,0,0,0,0,0,0,0,0,0,0,0,0,0,0,0,0,0,0,0,0,0,0,0,0,0,0,0,0,0,0,0,0,0,
0,0,0,0,0,0,0,0,0,0,0,0,0,0,0,0,0,0,0,0,0,0,0,0,0,0,0,0,0,0,0,0,0,0,0,0,0,0,0,0,0,0,0,0,0,0,0,0,0,0,0,0,0,0,0,0,0,0,0,0,0,0,0,0,0,0,0,0,0,0,0,0,0,0,0,0,0,0,0,0,
0,0,0,0,0,0,0,0,0,0,0,0,0,0,0,0,0,0,0,0,0,0,0,0,0,0,0,0,0,0,0,0,0,0,0,0,0,0,0,0,0,0,0,0,0,0,0,0,0,0,0,0,0,0,0,0,0,0,0,0,0,0,0,0,0,0,0,0,0,0,0,0,0,0,0,0,0,0,0,0,
0,0,0,0,0,0,0,0,0,0,0,0,0,0,0,0,0,0,0,0,0,0,0,0,0,0,0,0,0,0,0,0,0,0,0,0,0,0,0,0,0,0,0,0,0,0,0,0,0,0,0,0,0,0,0,0,0,0,0,0,0,0,0,0,0,0,0,0,0,0,0,0,0,0,0,0,0,0,0,0,
0,0,0,0,0,0,0,0,0,0,0,0,0,0,0,0,0,0,0,0,0,0,0,0,0,0,0,0,0,0,0,0,0,0,0,0,0,0,0,0,0,0,0,0,0,0,0,0,0,0,0,0,0,0,0,0,0,0,0,0,0,0,0,0,0,0,0,0,0,0,0,0,0,0,0,0,0,0,0,0,
0,0,0,0,0,0,0,0,0,0,0,0,0,0,0,0,0,0,0,0,0,0,0,0,0,0,0,0,0,0,0,0,0,0,0,0,0,0,0,0,0,0,0,0,0,0,0,0,0,0,0,0,0,0,0,0,0,0,0,0,0,0,0,0,0,0,0,0,0,0,0,0,0,0,0,0,0,0,0,0,
0,0,0,0,0,0,0,0,0,0,0,0,0,0,0,0,0,0,0,0,0,0,0,0,0,0,0,0,0,0,0,0,0,0,0,0,0,0,0,0,0,0,0,0,0,0,0,0,0,0,0,0,0,0,0,0,0,0,0,0,0,0,0,0,0,0,0,0,0,0,0,0,0,0,0,0,0,0,0,0,
0,0,0,0,0,0,0,0,0,0,0,0,0,0,0,0,0,0,0,0,0,0,0,0,0,0,0,0,0,0,0,0,0,0,0,0,0,0,0,0,0,0,0,0,0,0,0,0,0,0,0,0,0,0,0,0,0,0,0,0,0,0,0,0,0,0,0,0,0,0,0,0,0,0,0,0,0,0,0,0,
0,0,0,0,0,0,0,0,0,0,0,0,0,0,0,0,0,0,0,0,0,0,0,0,0,0,0,0,0,0,0,0,0,0,0,0,0,0,0,0,0,0,0,0,0,0,0,0,0,0,0,0,0,0,0,0,0,0,0,0,0,0,0,0,0,0,0,0,0,0,0,0,0,0,0,0,0,0,0,0,
0,0,0,0,0,0,0,0,0,0,0,0,0,0,0,0,0,0,0,0,0,0,0,0,0,0,0,0,0,0,0,0,0,0,0,0,0,0,0,0,0,0,0,0,0,0,0,0,0,0,0,0,0,0,0,0,0,0,0,0,0,0,0,0,0,0,0,0,0,0,0,0,0,0,0,0,0,0,0,0,
0,0,0,0,0,0,0,0,0,0,0,0,0,0,0,0,0,0,0,0,0,0,0,0,0,0,0,0,0,0,0,0,0,0,0,0,0,0,0,0,0,0,0,0,0,0,0,0,0,0,0,0,0,0,0,0,0,0,0,0,0,0,0,0,0,0,0,0,0,0,0,0,0,0,0,0,0,0,0,0,
0,0,0,0,0,0,0,0,0,0,0,0,0,0,0,0,0,0,0,0,0,0,0,0,0,0,0,0,0,0,0,0,0,0,0,0,0,0,0,0,0,0,0,0,0,0,0,0,0,0,0,0,0,0,0,0,0,0,0,0,0,0,0,0,0,0,0,0,0,0,0,0,0,0,0,0,0,0,0,0,
0,0,0,0,0,0,0,0,0,0,0,0,0,0,0,0,0,0,0,0,0,0,0,0,0,0,0,0,0,0,0,0,0,0,0,0,0,0,0,0,0,0,0,0,0,0,0,0,0,0,0,0,0,0,0,0,0,0,0,0,0,0,0,0,0,0,0,0,0,0,0,0,0,0,0,0,0,0,0,0,
0,0,0,0,0,0,0,0,0,0,0,0,0,0,0,0,0,0,0,0,0,0,0,0,0,0,0,0,0,0,0,0,0,0,0,0,0,0,0,0,0,0,0,0,0,0,0,0,0,0,0,0,0,0,0,0,0,0,0,0,0,0,0,0,0,0,0,0,0,0,0,0,0,0,0,0,0,0,0,0,
0,0,0,0,0,0,0,0,0,0,0,0,0,0,0,0,0,0,0,0,0,0,0,0,0,0,0,0,0,0,0,0,0,0,0,0,0,0,0,0,0,0,0,0,0,0,0,0,0,0,0,0,0,0,0,0,0,0,0,0,0,0,0,0,0,0,0,0,0,0,0,0,0,0,0,0,0,0,0,0,
0,0,0,0,0,0,0,0,393,394,0,0,0,0,0,0,0,0,0,0,0,0,0,0,0,0,0,0,0,0,0,0,0,0,0,0,0,0,0,0,0,0,0,0,0,0,0,0,0,0,0,0,0,0,0,0,0,0,0,0,0,0,0,0,0,0,0,0,0,0,0,0,0,0,0,0,0,0,0,0,
0,0,0,0,0,0,0,0,399,400,0,0,0,0,0,0,0,0,0,0,0,0,0,0,0,0,0,0,0,0,0,0,0,0,0,0,0,0,0,0,0,0,0,0,0,0,0,0,0,0,0,0,0,0,0,0,0,0,0,0,0,0,0,0,0,0,0,0,0,0,0,0,0,0,0,0,0,0,0,0,
0,0,0,0,0,0,0,0,405,406,0,0,0,0,0,0,0,0,0,0,0,0,0,0,0,0,0,0,0,0,0,0,0,0,0,0,0,0,0,0,0,0,0,0,0,0,0,0,0,0,0,0,0,0,0,0,0,0,0,0,0,0,0,0,0,0,0,0,0,0,0,0,0,0,0,0,0,0,0,0,
0,0,0,0,0,0,0,0,411,412,0,0,0,0,0,0,0,0,0,0,0,0,0,0,0,0,0,0,0,0,0,0,0,0,0,0,0,0,0,0,0,0,0,0,0,0,0,0,0,0,0,0,0,0,0,0,0,0,0,0,0,0,0,0,0,0,0,0,0,0,0,0,0,0,0,0,0,0,0,0,
0,0,0,0,0,0,0,0,405,406,0,0,0,0,0,0,0,0,0,0,0,0,0,0,0,0,0,0,0,0,0,0,0,0,0,0,0,0,0,0,0,0,0,0,0,0,0,0,0,0,0,0,0,0,0,0,0,0,0,0,0,0,0,0,0,0,0,0,0,0,0,0,0,0,0,0,0,0,0,0,
0,0,0,0,0,0,0,0,411,412,0,0,0,0,0,0,0,0,0,0,0,0,0,0,0,0,0,0,0,0,0,0,0,0,0,0,0,0,0,0,0,0,0,0,0,0,0,0,0,0,0,0,0,0,0,0,0,0,0,0,0,0,0,0,0,0,0,0,0,0,0,0,0,0,0,0,0,0,0,0,
0,0,0,0,0,0,0,0,417,418,0,0,0,0,0,0,0,0,0,0,0,0,0,0,0,0,0,0,0,0,0,0,0,0,0,0,0,0,0,0,0,0,0,0,0,0,0,0,0,0,0,0,0,0,0,0,0,0,0,0,0,0,0,0,0,0,0,0,0,0,0,0,0,0,0,0,0,0,0,0,
0,0,0,0,0,0,0,0,423,424,0,0,0,0,0,0,0,0,0,0,0,0,0,0,0,0,0,0,0,0,0,0,0,0,0,0,0,0,0,0,0,0,0,0,0,0,0,0,0,0,0,0,0,0,0,0,0,0,0,0,0,0,0,0,0,0,0,0,0,0,0,0,0,0,0,0,0,0,0,0,
0,0,0,0,0,0,0,0,0,0,0,0,0,0,0,0,0,0,0,0,0,0,0,0,0,0,0,0,0,0,0,0,0,0,0,0,0,0,0,0,0,0,0,0,0,0,0,0,0,0,0,0,0,0,0,0,0,0,0,0,0,0,0,0,0,0,0,0,0,0,0,0,0,0,0,0,0,0,0,0,
0,0,0,0,0,0,0,0,0,0,0,0,0,0,0,0,0,0,0,0,0,0,0,0,0,0,0,0,0,0,0,0,0,0,0,0,0,0,0,0,0,0,0,0,0,0,0,0,0,0,0,0,0,0,0,0,0,0,0,0,0,0,0,0,0,0,0,0,0,0,0,0,0,0,0,0,0,0,0,0,
0,0,0,0,0,0,0,0,0,0,0,0,0,0,0,0,0,0,0,0,0,0,0,0,0,0,0,0,0,0,0,0,0,0,0,0,0,0,0,0,0,0,0,0,0,0,0,0,0,0,0,0,0,0,0,0,0,0,0,0,0,0,0,0,0,0,0,0,0,0,0,0,0,0,0,0,0,0,0,0,
0,0,0,0,0,0,0,0,0,0,0,0,0,0,0,0,0,0,0,0,0,0,0,0,0,0,0,0,0,0,0,0,0,0,0,0,0,0,0,0,0,0,0,0,0,0,0,0,0,0,0,0,0,0,0,0,0,0,0,0,0,0,0,0,0,0,0,0,0,0,0,0,0,0,0,0,0,0,0,0,
0,0,0,0,0,0,0,0,0,0,0,0,0,0,0,0,0,0,0,0,0,0,0,0,0,0,0,0,0,0,0,0,0,0,0,0,0,0,0,0,0,0,0,0,0,0,0,0,0,0,0,0,0,0,0,0,0,0,0,0,0,0,0,0,0,0,0,0,0,0,0,0,0,0,0,0,0,0,0,0,
0,0,0,0,0,0,0,0,0,0,0,0,0,0,0,0,0,0,0,0,0,0,0,0,0,0,0,0,0,0,0,0,0,0,0,0,0,0,0,0,0,0,0,0,0,0,0,0,0,0,0,0,0,0,0,0,0,0,0,0,0,0,0,0,0,0,0,0,0,0,0,0,0,0,0,0,0,0,0,0,
0,0,0,0,0,0,0,0,0,0,0,0,0,0,0,0,0,0,0,0,0,0,0,0,0,0,0,0,0,0,0,0,0,0,0,0,0,0,0,0,0,0,0,0,0,0,0,0,0,0,0,0,0,0,0,0,0,0,0,0,0,0,0,0,0,0,0,0,0,0,0,0,0,0,0,0,0,0,0,0,
0,0,0,0,0,0,0,0,0,0,0,0,0,0,0,0,0,0,0,0,0,0,0,0,0,0,0,0,0,0,0,0,0,0,0,0,0,0,0,0,0,0,0,0,0,0,0,0,0,0,0,0,0,0,0,0,0,0,0,0,0,0,0,0,0,0,0,0,0,0,0,0,0,0,0,0,0,0,0,0,
0,0,0,0,0,0,0,0,0,0,0,0,0,0,0,0,0,0,0,0,0,0,0,0,0,0,0,0,0,0,0,0,0,0,0,0,0,0,0,0,0,0,0,0,0,0,0,0,0,0,0,0,0,0,0,0,0,0,0,0,0,0,0,0,0,0,0,0,0,0,0,0,0,0,0,0,0,0,0,0
</data>
 </layer>
 <layer id="6" name="floor" width="80" height="45">
  <data encoding="csv">
0,0,0,0,0,0,0,0,0,0,0,0,0,0,0,0,0,0,0,0,0,0,0,0,0,0,0,0,0,0,0,0,0,0,0,0,0,0,0,0,0,0,0,0,0,0,0,0,0,0,0,0,0,0,0,0,0,0,0,0,0,0,0,0,0,0,0,0,0,0,0,0,0,0,0,0,0,0,0,0,
0,0,0,0,0,0,0,0,0,0,0,0,0,0,0,0,0,0,0,0,0,0,0,0,0,0,0,0,0,0,0,0,0,0,0,0,0,0,0,0,0,0,0,0,0,0,0,0,0,0,0,0,0,0,0,0,0,0,0,0,0,0,0,0,0,0,0,0,0,0,0,0,0,0,0,0,0,0,0,0,
0,0,0,0,0,0,0,0,0,0,0,0,0,0,0,0,0,0,0,0,0,0,0,0,0,0,0,0,0,0,0,0,0,0,0,0,0,0,0,0,0,0,0,0,0,0,0,0,0,0,0,0,0,0,0,0,0,0,0,0,0,0,0,0,0,0,0,0,0,0,0,0,0,0,0,0,0,0,0,0,
0,0,0,0,0,0,0,0,0,0,0,0,0,0,0,0,0,0,0,0,0,0,0,0,0,0,0,0,0,0,0,0,0,0,0,0,0,0,0,0,0,0,0,0,0,0,0,0,0,0,0,0,0,0,0,0,0,0,0,0,0,0,0,0,0,0,0,0,0,0,0,0,0,0,0,0,0,0,0,0,
0,0,0,0,0,0,0,0,0,0,0,0,0,0,0,0,0,0,0,0,0,0,0,0,0,0,0,0,0,0,0,0,0,0,0,0,0,0,0,0,0,0,0,0,0,0,0,0,0,0,0,0,0,0,0,0,0,0,0,525,525,525,525,525,525,525,525,0,0,0,0,0,0,0,0,0,0,0,0,0,
0,0,0,0,0,0,0,0,0,0,0,0,0,0,0,0,0,0,0,0,0,0,0,0,0,0,0,0,0,0,0,0,0,0,0,0,0,0,0,0,0,0,0,0,0,0,0,0,0,0,0,0,0,0,0,0,0,0,0,573,573,573,573,573,573,573,573,0,0,0,0,0,0,0,0,0,0,0,0,0,
0,0,0,0,0,0,0,0,0,0,0,0,0,0,0,0,0,0,0,0,0,0,0,0,0,0,0,0,0,0,0,0,0,0,0,0,0,0,0,0,0,0,0,0,0,0,0,0,0,0,0,0,0,0,0,0,0,0,0,817,817,817,817,817,817,817,817,0,0,0,0,0,0,0,0,0,0,0,0,0,
0,0,0,0,0,0,0,0,0,0,0,0,0,0,0,0,0,0,0,0,0,0,0,0,0,0,0,0,0,0,0,0,0,0,0,0,0,0,0,0,0,0,0,0,0,0,0,0,0,0,0,0,0,0,0,0,0,0,0,817,817,817,817,817,817,817,817,0,0,0,0,0,0,0,0,0,0,0,0,0,
0,0,0,0,0,0,0,0,0,0,0,0,0,0,0,0,0,0,0,0,0,0,0,0,0,0,0,0,0,0,0,0,0,0,0,0,0,0,0,0,0,0,0,0,0,0,0,0,0,0,0,0,0,0,0,0,0,0,0,817,817,817,817,817,817,817,817,0,0,0,0,0,0,0,0,0,0,0,0,0,
0,0,0,0,0,0,0,0,0,0,0,0,0,0,0,0,0,0,0,0,0,0,0,0,0,0,0,0,0,0,0,0,0,0,0,0,0,0,0,0,0,0,0,0,0,0,0,0,0,0,0,0,0,0,0,0,0,0,0,817,817,817,817,817,817,817,817,0,0,0,0,0,0,0,0,0,0,0,0,0,
0,0,0,0,0,0,0,0,0,0,0,0,0,0,0,0,0,0,0,0,0,0,0,0,0,0,0,0,0,0,0,0,0,0,0,0,0,0,0,0,0,0,0,0,0,0,0,0,0,0,0,0,0,0,0,0,0,0,0,817,817,817,817,817,817,817,817,0,0,0,0,0,0,0,0,0,0,0,0,0,
0,0,0,0,0,0,0,0,0,0,0,0,0,0,0,0,0,0,0,0,0,0,0,0,0,0,0,0,0,0,0,0,0,0,0,0,0,0,0,0,0,0,0,0,0,0,0,0,0,0,0,0,0,0,0,0,0,0,0,817,817,817,817,817,817,817,817,0,0,0,0,0,0,0,0,0,0,0,0,0,
0,0,0,0,0,0,0,0,0,0,0,0,0,0,0,0,0,0,0,0,0,0,0,0,0,0,0,0,0,0,0,0,0,0,0,0,0,0,0,0,0,0,0,0,0,0,0,0,0,0,0,0,0,0,0,0,0,0,0,0,0,0,817,817,0,0,0,0,0,0,0,0,0,0,0,0,0,0,0,0,
0,0,0,0,0,0,0,0,0,0,0,0,0,0,0,0,0,0,0,0,0,0,0,0,0,0,0,0,0,0,0,0,0,0,0,0,0,0,0,0,0,0,0,0,0,0,0,0,0,0,0,0,0,0,0,0,0,0,0,0,0,0,0,0,0,0,0,0,0,0,0,0,0,0,0,0,0,0,0,0,
0,0,0,0,0,0,0,0,0,0,0,0,0,0,0,0,0,0,0,0,0,0,0,0,0,0,0,0,0,0,0,0,0,0,0,0,0,0,0,0,0,0,0,0,0,0,0,0,0,0,0,0,0,0,0,0,0,0,0,0,0,0,0,0,0,0,0,0,0,0,0,0,0,0,0,0,0,0,0,0,
0,0,0,0,0,0,0,0,0,0,0,0,0,0,0,0,0,0,0,0,0,0,0,0,0,0,0,0,0,0,0,0,0,0,0,0,0,0,0,0,0,0,0,0,0,0,0,0,0,0,0,0,0,0,0,0,0,0,0,0,0,0,0,0,0,0,0,0,0,0,0,0,0,0,0,0,0,0,0,0,
0,0,0,0,0,0,0,0,0,0,0,0,0,0,0,0,0,0,0,0,0,0,0,0,0,0,0,0,0,0,0,0,0,0,0,0,0,0,0,0,0,0,0,0,0,0,0,0,0,0,0,0,0,0,0,0,0,0,0,0,0,0,0,0,0,0,0,0,0,0,0,0,0,0,0,0,0,0,0,0,
0,0,0,0,0,0,0,0,0,0,0,0,0,0,0,0,0,0,0,0,0,0,0,0,0,0,0,0,0,0,0,0,0,0,0,0,0,0,0,0,0,0,0,0,0,0,0,0,0,0,0,0,0,0,0,0,0,0,0,0,0,0,0,0,0,0,0,0,0,0,0,0,0,0,0,0,0,0,0,0,
0,0,0,0,0,0,0,0,0,0,0,0,0,0,0,0,0,0,0,0,0,0,0,0,0,0,0,0,0,0,0,0,0,0,0,0,0,0,0,0,0,0,0,0,0,0,0,0,0,0,0,0,0,0,0,0,0,0,0,0,0,0,0,0,0,0,0,0,0,0,0,0,0,0,0,0,0,0,0,0,
0,0,0,0,0,0,0,0,0,0,0,0,0,0,0,0,0,0,0,0,0,0,0,0,0,0,0,0,0,0,0,0,0,0,0,0,0,0,0,0,0,0,0,0,0,0,0,0,0,0,0,0,0,0,0,0,0,0,0,0,0,0,0,0,0,0,0,0,0,0,0,0,0,0,0,0,0,0,0,0,
0,0,0,0,0,0,0,0,0,0,0,0,0,0,0,0,0,0,0,0,0,0,0,0,0,0,0,0,0,0,0,0,0,0,0,0,0,0,0,0,0,0,0,0,0,0,0,0,0,0,0,0,0,0,0,0,0,0,0,0,0,0,0,0,0,0,0,0,0,0,0,0,0,0,0,0,0,0,0,0,
0,0,0,0,0,0,0,0,0,0,0,0,0,0,0,0,0,0,0,0,0,0,0,0,0,0,0,0,0,0,0,0,0,0,0,0,0,0,0,0,0,0,0,0,0,0,0,0,0,0,0,0,0,0,0,0,0,0,0,0,0,0,0,0,0,0,0,0,0,0,0,0,0,0,0,0,0,0,0,0,
0,0,0,0,0,0,0,0,0,0,0,0,0,0,0,0,0,0,0,0,0,0,0,0,0,0,0,0,0,0,0,0,0,0,0,0,0,0,0,0,0,0,0,0,0,0,0,0,0,0,0,0,0,0,0,0,0,0,0,0,0,0,0,0,0,0,0,0,0,0,0,0,0,0,0,0,0,0,0,0,
0,0,0,0,0,0,0,0,0,0,0,0,0,0,0,0,0,0,0,0,0,0,0,0,0,0,0,0,0,0,0,0,0,0,0,0,0,0,0,0,0,0,0,0,0,0,0,0,0,0,0,0,0,0,0,0,0,0,0,0,0,0,0,0,0,0,0,0,0,0,0,0,0,0,0,0,0,0,0,0,
0,0,0,0,0,0,0,0,0,0,0,0,0,0,0,0,0,0,0,0,0,0,0,0,0,0,0,0,0,0,0,0,0,0,0,0,0,0,0,0,0,0,0,0,0,0,0,0,0,0,0,0,0,0,0,0,0,0,0,0,0,0,0,0,0,0,0,0,0,0,0,0,0,0,0,0,0,0,0,0,
0,0,0,0,0,0,0,0,0,0,0,0,0,0,0,0,0,0,0,0,0,0,0,0,0,0,0,0,0,0,0,0,0,0,0,0,0,0,0,0,0,0,0,0,0,0,0,0,0,0,0,0,0,0,0,0,0,0,0,0,0,0,0,0,0,0,0,0,0,0,0,0,0,0,0,0,0,0,0,0,
0,0,0,0,0,0,0,0,0,0,0,0,0,0,0,0,0,767,767,0,0,0,0,0,0,0,0,0,0,0,0,0,0,0,0,0,0,0,0,0,0,0,0,0,0,0,0,0,0,0,0,0,0,0,0,0,0,0,0,0,0,0,0,0,0,0,0,0,0,0,0,0,0,0,0,0,0,0,0,0,
0,0,0,0,0,0,0,0,0,0,0,0,0,0,0,434,434,767,767,434,434,0,0,0,0,0,0,0,0,0,0,0,0,0,0,0,0,0,0,0,0,0,0,0,0,0,0,0,0,0,0,0,0,0,0,0,0,0,0,0,0,0,0,0,0,0,527,527,527,527,527,527,527,527,527,527,0,0,0,0,
0,0,0,0,0,0,0,0,0,0,0,0,0,0,0,482,482,767,767,482,482,0,0,0,525,525,525,525,525,525,525,525,0,0,0,0,0,0,0,0,0,0,0,0,0,0,0,0,0,0,0,0,0,0,0,0,0,0,0,0,0,0,0,0,0,0,575,575,575,575,575,575,575,575,575,575,0,0,0,0,
0,0,0,0,0,0,0,0,0,0,0,0,0,0,0,767,767,767,767,767,767,0,0,0,573,573,573,573,573,573,573,573,0,0,0,0,0,0,0,0,0,0,0,0,0,0,0,0,0,0,0,0,0,0,0,0,0,0,0,0,0,0,0,0,0,0,814,814,814,814,814,814,814,814,814,814,0,0,0,0,
0,0,0,0,0,0,0,0,0,0,0,0,0,0,0,767,767,767,767,767,767,0,0,0,867,867,867,867,867,867,867,867,0,0,0,0,0,0,0,0,0,0,0,0,0,0,0,0,0,0,0,0,0,0,0,0,0,0,0,0,0,0,0,0,0,0,814,814,814,814,814,814,814,814,814,814,0,0,0,0,
0,0,0,0,0,0,0,0,0,0,0,0,0,0,0,767,767,767,767,767,767,0,0,0,867,867,867,867,867,867,867,867,0,0,0,0,0,0,0,0,0,0,0,0,0,0,0,0,0,0,0,0,0,0,0,0,0,0,0,0,0,0,0,0,0,0,814,814,814,814,814,814,814,814,814,814,0,0,0,0,
0,0,0,0,0,0,0,0,0,0,0,0,0,0,0,767,767,767,767,767,767,0,0,0,867,867,867,867,867,867,867,867,0,0,0,0,0,0,0,0,0,0,0,0,0,0,0,0,0,0,0,0,0,0,0,0,0,0,0,0,0,0,0,0,0,0,814,814,814,814,814,814,814,814,814,814,0,0,0,0,
0,0,0,0,0,0,0,0,0,0,0,0,0,0,0,767,767,767,767,767,767,0,0,0,867,867,867,867,867,867,867,867,0,0,0,0,0,0,0,0,0,0,0,0,0,0,0,0,0,0,0,0,0,0,0,0,0,0,0,0,0,0,0,0,0,0,814,814,814,814,814,814,814,814,814,814,0,0,0,0,
0,0,0,0,0,0,0,0,0,0,0,0,0,0,0,767,767,767,767,767,767,0,0,0,867,867,867,867,867,867,867,867,0,0,0,0,0,0,0,0,0,0,0,0,0,0,0,0,0,0,0,0,0,0,0,0,0,0,0,0,0,0,0,0,0,814,814,814,814,814,814,814,814,814,814,814,0,0,0,0,
0,0,0,0,0,0,0,0,0,0,0,0,0,0,0,0,0,0,0,0,0,0,0,0,0,0,0,867,867,0,0,0,0,0,0,0,0,0,0,0,0,0,0,0,0,0,0,0,0,0,0,0,0,0,0,0,0,0,0,0,0,0,0,0,0,814,814,814,814,814,814,814,814,814,814,814,0,0,0,0,
0,0,0,0,0,0,0,0,0,0,0,0,0,0,0,0,0,0,0,0,0,0,0,0,0,0,0,0,0,0,0,0,0,0,0,0,0,0,0,0,0,0,0,0,0,0,0,0,0,0,0,0,0,0,0,0,0,0,0,0,0,0,0,0,0,0,0,0,0,0,814,814,0,0,0,0,0,0,0,0,
0,0,0,0,0,0,0,0,0,0,0,0,0,0,0,0,0,0,0,0,0,0,0,0,0,0,0,0,0,0,0,0,0,0,0,0,0,0,0,0,0,0,0,0,0,0,0,0,0,0,0,0,0,0,0,0,0,0,0,0,0,0,0,0,0,0,0,0,0,0,0,0,0,0,0,0,0,0,0,0,
0,0,0,0,0,0,0,0,0,0,0,0,0,0,0,0,0,0,0,0,0,0,0,0,0,0,0,0,0,0,0,0,0,0,0,0,0,0,0,0,0,0,0,0,0,0,0,0,0,0,0,0,0,0,0,0,0,0,0,0,0,0,0,0,0,0,0,0,0,0,0,0,0,0,0,0,0,0,0,0,
0,0,0,0,0,0,0,0,0,0,0,0,0,0,0,0,0,0,0,0,0,0,0,0,0,0,0,0,0,0,0,0,0,0,0,0,0,0,0,0,0,0,0,0,0,0,0,0,0,0,0,0,0,0,0,0,0,0,0,0,0,0,0,0,0,0,0,0,0,0,0,0,0,0,0,0,0,0,0,0,
0,0,0,0,0,0,0,0,0,0,0,0,0,0,0,0,0,0,0,0,0,0,0,0,0,0,0,0,0,0,0,0,0,0,0,0,0,0,0,0,0,0,0,0,0,0,0,0,0,0,0,0,0,0,0,0,0,0,0,0,0,0,0,0,0,0,0,0,0,0,0,0,0,0,0,0,0,0,0,0,
0,0,0,0,0,0,0,0,0,0,0,0,0,0,0,0,0,0,0,0,0,0,0,0,0,0,0,0,0,0,0,0,0,0,0,0,0,0,0,0,0,0,0,0,0,0,0,0,0,0,0,0,0,0,0,0,0,0,0,0,0,0,0,0,0,0,0,0,0,0,0,0,0,0,0,0,0,0,0,0,
0,0,0,0,0,0,0,0,0,0,0,0,0,0,0,0,0,0,0,0,0,0,0,0,0,0,0,0,0,0,0,0,0,0,0,0,0,0,0,0,0,0,0,0,0,0,0,0,0,0,0,0,0,0,0,0,0,0,0,0,0,0,0,0,0,0,0,0,0,0,0,0,0,0,0,0,0,0,0,0,
0,0,0,0,0,0,0,0,0,0,0,0,0,0,0,0,0,0,0,0,0,0,0,0,0,0,0,0,0,0,0,0,0,0,0,0,0,0,0,0,0,0,0,0,0,0,0,0,0,0,0,0,0,0,0,0,0,0,0,0,0,0,0,0,0,0,0,0,0,0,0,0,0,0,0,0,0,0,0,0,
0,0,0,0,0,0,0,0,0,0,0,0,0,0,0,0,0,0,0,0,0,0,0,0,0,0,0,0,0,0,0,0,0,0,0,0,0,0,0,0,0,0,0,0,0,0,0,0,0,0,0,0,0,0,0,0,0,0,0,0,0,0,0,0,0,0,0,0,0,0,0,0,0,0,0,0,0,0,0,0
</data>
 </layer>
 <layer id="7" name="walls" width="80" height="45">
  <data encoding="csv">
0,0,0,0,0,0,0,0,0,0,0,0,0,0,0,0,0,0,0,0,0,0,0,0,0,0,0,0,0,0,0,0,0,0,0,0,0,0,0,0,0,0,0,0,0,0,0,0,0,0,0,0,0,0,0,0,0,0,0,0,0,0,0,0,0,0,0,0,0,0,0,0,0,0,0,0,0,0,0,0,
0,0,0,0,0,0,0,0,0,0,0,0,0,0,0,0,0,0,0,0,0,0,0,0,0,0,0,0,0,0,0,0,0,0,0,0,0,0,0,0,0,0,0,0,0,0,0,0,0,0,0,0,0,0,0,0,0,0,0,0,0,0,0,0,0,0,0,0,0,0,0,0,0,0,0,0,0,0,0,0,
0,0,0,0,0,0,0,0,0,0,0,0,0,0,0,0,0,0,0,0,0,0,0,0,0,0,0,0,0,0,0,0,0,0,0,0,0,0,0,0,0,0,0,0,0,0,0,0,0,0,0,0,0,0,0,0,0,0,0,0,0,0,0,0,0,0,0,0,0,0,0,0,0,0,0,0,0,0,0,0,
0,0,0,0,0,0,0,0,0,0,0,0,0,0,0,0,0,0,0,0,0,0,0,0,0,0,0,0,0,0,0,0,0,0,0,0,0,0,0,0,0,0,0,0,0,0,0,0,0,0,0,0,0,0,0,0,0,0,958,959,959,959,959,959,959,959,959,960,0,0,0,0,0,0,0,0,0,0,0,0,
0,0,0,0,0,0,0,0,0,0,0,0,0,0,0,0,0,0,0,0,0,0,0,0,0,0,0,0,0,0,0,0,0,0,0,0,0,0,0,0,0,0,0,0,0,0,0,0,0,0,0,0,0,0,0,0,0,0,1053,0,0,0,0,0,0,0,0,1057,0,0,0,0,0,0,0,0,0,0,0,0,
0,0,0,0,0,0,0,0,0,0,0,0,0,0,0,0,0,0,0,0,0,0,0,0,0,0,0,0,0,0,0,0,0,0,0,0,0,0,0,0,0,0,0,0,0,0,0,0,0,0,0,0,0,0,0,0,0,0,1053,0,0,0,0,0,0,0,0,1057,0,0,0,0,0,0,0,0,0,0,0,0,
0,0,0,0,0,0,0,0,0,0,0,0,0,0,0,0,0,0,0,0,0,0,0,0,0,0,0,0,0,0,0,0,0,0,0,0,0,0,0,0,0,0,0,0,0,0,0,0,0,0,0,0,0,0,0,0,0,0,1053,0,0,0,0,0,0,0,0,1057,0,0,0,0,0,0,0,0,0,0,0,0,
0,0,0,0,0,0,0,0,0,0,0,0,0,0,0,0,0,0,0,0,0,0,0,0,0,0,0,0,0,0,0,0,0,0,0,0,0,0,0,0,0,0,0,0,0,0,0,0,0,0,0,0,0,0,0,0,0,0,1053,0,0,0,0,0,0,0,0,1057,0,0,0,0,0,0,0,0,0,0,0,0,
0,0,0,0,0,0,0,0,0,0,0,0,0,0,0,0,0,0,0,0,0,0,0,0,0,0,0,0,0,0,0,0,0,0,0,0,0,0,0,0,0,0,0,0,0,0,0,0,0,0,0,0,0,0,0,0,0,0,1053,0,0,0,0,0,0,0,0,1057,0,0,0,0,0,0,0,0,0,0,0,0,
0,0,0,0,0,0,0,0,0,0,0,0,0,0,0,0,0,0,0,0,0,0,0,0,0,0,0,0,0,0,0,0,0,0,0,0,0,0,0,0,0,0,0,0,0,0,0,0,0,0,0,0,0,0,0,0,0,0,1053,0,0,0,0,0,0,0,0,1057,0,0,0,0,0,0,0,0,0,0,0,0,
0,0,0,0,0,0,0,0,0,0,0,0,0,0,0,0,0,0,0,0,0,0,0,0,0,0,0,0,0,0,0,0,0,0,0,0,0,0,0,0,0,0,0,0,0,0,0,0,0,0,0,0,0,0,0,0,0,0,1053,0,0,0,0,0,0,0,0,1057,0,0,0,0,0,0,0,0,0,0,0,0,
0,0,0,0,0,0,0,0,0,0,0,0,0,0,0,0,0,0,0,0,0,0,0,0,0,0,0,0,0,0,0,0,0,0,0,0,0,0,0,0,0,0,0,0,0,0,0,0,0,0,0,0,0,0,0,0,0,0,1053,0,0,0,0,0,0,0,0,1057,0,0,0,0,0,0,0,0,0,0,0,0,
0,0,0,0,0,0,0,0,0,0,0,0,0,0,0,0,0,0,0,0,0,0,0,0,0,0,0,0,0,0,0,0,0,0,0,0,0,0,0,0,0,0,0,0,0,0,0,0,0,0,0,0,0,0,0,0,0,0,1150,1151,1151,1151,0,0,1151,1151,1151,1152,0,0,0,0,0,0,0,0,0,0,0,0,
0,0,0,0,0,0,0,0,0,0,0,0,0,0,0,0,0,0,0,0,0,0,0,0,0,0,0,0,0,0,0,0,0,0,0,0,0,0,0,0,0,0,0,0,0,0,0,0,0,0,0,0,0,0,0,0,0,0,0,0,0,0,0,0,0,0,0,0,0,0,0,0,0,0,0,0,0,0,0,0,
0,0,0,0,0,0,0,0,0,0,0,0,0,0,0,0,0,0,0,0,0,0,0,0,0,0,0,0,0,0,0,0,0,0,0,0,0,0,0,0,0,0,0,0,0,0,0,0,0,0,0,0,0,0,0,0,0,0,0,0,0,0,0,0,0,0,0,0,0,0,0,0,0,0,0,0,0,0,0,0,
0,0,0,0,0,0,0,0,0,0,0,0,0,0,0,0,0,0,0,0,0,0,0,0,0,0,0,0,0,0,0,0,0,0,0,0,0,0,0,0,0,0,0,0,0,0,0,0,0,0,0,0,0,0,0,0,0,0,0,0,0,0,0,0,0,0,0,0,0,0,0,0,0,0,0,0,0,0,0,0,
0,0,0,0,0,0,0,0,0,0,0,0,0,0,0,0,0,0,0,0,0,0,0,0,0,0,0,0,0,0,0,0,0,0,0,0,0,0,0,0,0,0,0,0,0,0,0,0,0,0,0,0,0,0,0,0,0,0,0,0,0,0,0,0,0,0,0,0,0,0,0,0,0,0,0,0,0,0,0,0,
0,0,0,0,0,0,0,0,0,0,0,0,0,0,0,0,0,0,0,0,0,0,0,0,0,0,0,0,0,0,0,0,0,0,0,0,0,0,0,0,0,0,0,0,0,0,0,0,0,0,0,0,0,0,0,0,0,0,0,0,0,0,0,0,0,0,0,0,0,0,0,0,0,0,0,0,0,0,0,0,
0,0,0,0,0,0,0,0,0,0,0,0,0,0,0,0,0,0,0,0,0,0,0,0,0,0,0,0,0,0,0,0,0,0,0,0,0,0,0,0,0,0,0,0,0,0,0,0,0,0,0,0,0,0,0,0,0,0,0,0,0,0,0,0,0,0,0,0,0,0,0,0,0,0,0,0,0,0,0,0,
0,0,0,0,0,0,0,0,0,0,0,0,0,0,0,0,0,0,0,0,0,0,0,0,0,0,0,0,0,0,0,0,0,0,0,0,0,0,0,0,0,0,0,0,0,0,0,0,0,0,0,0,0,0,0,0,0,0,0,0,0,0,0,0,0,0,0,0,0,0,0,0,0,0,0,0,0,0,0,0,
0,0,0,0,0,0,0,0,0,0,0,0,0,0,0,0,0,0,0,0,0,0,0,0,0,0,0,0,0,0,0,0,0,0,0,0,0,0,0,0,0,0,0,0,0,0,0,0,0,0,0,0,0,0,0,0,0,0,0,0,0,0,0,0,0,0,0,0,0,0,0,0,0,0,0,0,0,0,0,0,
0,0,0,0,0,0,0,0,0,0,0,0,0,0,0,0,0,0,0,0,0,0,0,0,0,0,0,0,0,0,0,0,0,0,0,0,0,0,0,0,0,0,0,0,0,0,0,0,0,0,0,0,0,0,0,0,0,0,0,0,0,0,0,0,0,0,0,0,0,0,0,0,0,0,0,0,0,0,0,0,
0,0,0,0,0,0,0,0,0,0,0,0,0,0,0,0,0,0,0,0,0,0,0,0,0,0,0,0,0,0,0,0,0,0,0,0,0,0,0,0,0,0,0,0,0,0,0,0,0,0,0,0,0,0,0,0,0,0,0,0,0,0,0,0,0,0,0,0,0,0,0,0,0,0,0,0,0,0,0,0,
0,0,0,0,0,0,0,0,0,0,0,0,0,0,0,0,0,0,0,0,0,0,0,0,0,0,0,0,0,0,0,0,0,0,0,0,0,0,0,0,0,0,0,0,0,0,0,0,0,0,0,0,0,0,0,0,0,0,0,0,0,0,0,0,0,0,0,0,0,0,0,0,0,0,0,0,0,0,0,0,
0,0,0,0,0,0,0,0,0,0,0,0,0,0,0,0,0,0,0,0,0,0,0,0,0,0,0,0,0,0,0,0,0,0,0,0,0,0,0,0,0,0,0,0,0,0,0,0,0,0,0,0,0,0,0,0,0,0,0,0,0,0,0,0,0,0,0,0,0,0,0,0,0,0,0,0,0,0,0,0,
0,0,0,0,0,0,0,0,0,0,0,0,0,0,0,0,0,0,0,0,0,0,0,0,0,0,0,0,0,0,0,0,0,0,0,0,0,0,0,0,0,0,0,0,0,0,0,0,0,0,0,0,0,0,0,0,0,0,0,0,0,0,0,0,0,0,0,0,0,0,0,0,0,0,0,0,0,0,0,0,
0,0,0,0,0,0,0,0,0,0,0,0,0,0,958,959,959,0,0,959,959,960,0,0,0,0,0,0,0,0,0,0,0,0,0,0,0,0,0,0,0,0,0,0,0,0,0,0,0,0,0,0,0,0,0,0,0,0,0,0,0,0,0,0,0,958,959,959,959,959,959,959,959,959,959,959,960,0,0,0,
0,0,0,0,0,0,0,0,0,0,0,0,0,0,1053,0,0,0,0,0,0,1057,0,958,959,959,959,959,959,959,959,959,960,0,0,0,0,0,0,0,0,0,0,0,0,0,0,0,0,0,0,0,0,0,0,0,0,0,0,0,0,0,0,0,0,1053,0,0,0,0,0,0,0,0,0,0,1057,0,0,0,
0,0,0,0,0,0,0,0,0,0,0,0,0,0,1053,0,0,0,0,0,0,1057,0,1053,0,0,0,0,0,0,0,0,1057,0,0,0,0,0,0,0,0,0,0,0,0,0,0,0,0,0,0,0,0,0,0,0,0,0,0,0,0,0,0,0,0,1053,0,0,0,0,0,0,0,0,0,0,1057,0,0,0,
0,0,0,0,0,0,0,0,0,0,0,0,0,0,1053,0,0,0,0,0,0,1057,0,1053,0,0,0,0,0,0,0,0,1057,0,0,0,0,0,0,0,0,0,0,0,0,0,0,0,0,0,0,0,0,0,0,0,0,0,0,0,0,0,0,0,0,1053,0,0,0,0,0,0,0,0,0,0,1057,0,0,0,
0,0,0,0,0,0,0,0,0,0,0,0,0,0,1053,0,0,0,0,0,0,1057,0,1053,0,0,0,0,0,0,0,0,1057,0,0,0,0,0,0,0,0,0,0,0,0,0,0,0,0,0,0,0,0,0,0,0,0,0,0,0,0,0,0,0,0,1053,0,0,0,0,0,0,0,0,0,0,1057,0,0,0,
0,0,0,0,0,0,0,0,0,0,0,0,0,0,1053,0,0,0,0,0,0,1057,0,1053,0,0,0,0,0,0,0,0,1057,0,0,0,0,0,0,0,0,0,0,0,0,0,0,0,0,0,0,0,0,0,0,0,0,0,0,0,0,0,0,0,0,1053,0,0,0,0,0,0,0,0,0,0,1057,0,0,0,
0,0,0,0,0,0,0,0,0,0,0,0,0,0,1053,0,0,0,0,0,0,1057,0,1053,0,0,0,0,0,0,0,0,1057,0,0,0,0,0,0,0,0,0,0,0,0,0,0,0,0,0,0,0,0,0,0,0,0,0,0,0,0,0,0,0,0,1053,0,0,0,0,0,0,0,0,0,0,1057,0,0,0,
0,0,0,0,0,0,0,0,0,0,0,0,0,0,1053,0,0,0,0,0,0,1057,0,1053,0,0,0,0,0,0,0,0,1057,0,0,0,0,0,0,0,0,0,0,0,0,0,0,0,0,0,0,0,0,0,0,0,0,0,0,0,0,0,0,0,0,1053,0,0,0,0,0,0,0,0,0,0,1057,0,0,0,
0,0,0,0,0,0,0,0,0,0,0,0,0,0,1053,0,0,0,0,0,0,1057,0,1053,0,0,0,0,0,0,0,0,1057,0,0,0,0,0,0,0,0,0,0,0,0,0,0,0,0,0,0,0,0,0,0,0,0,0,0,0,0,0,0,0,0,0,0,0,0,0,0,0,0,0,0,0,1057,0,0,0,
0,0,0,0,0,0,0,0,0,0,0,0,0,0,1150,1151,1151,1151,1151,1151,1151,1152,0,1150,1151,1151,1151,0,0,1151,1151,1151,1152,0,0,0,0,0,0,0,0,0,0,0,0,0,0,0,0,0,0,0,0,0,0,0,0,0,0,0,0,0,0,0,0,0,0,0,0,0,0,0,0,0,0,0,1057,0,0,0,
0,0,0,0,0,0,0,0,0,0,0,0,0,0,0,0,0,0,0,0,0,0,0,0,0,0,0,0,0,0,0,0,0,0,0,0,0,0,0,0,0,0,0,0,0,0,0,0,0,0,0,0,0,0,0,0,0,0,0,0,0,0,0,0,0,1150,1151,1151,1151,1151,0,0,1151,1151,1151,1151,1152,0,0,0,
0,0,0,0,0,0,0,0,0,0,0,0,0,0,0,0,0,0,0,0,0,0,0,0,0,0,0,0,0,0,0,0,0,0,0,0,0,0,0,0,0,0,0,0,0,0,0,0,0,0,0,0,0,0,0,0,0,0,0,0,0,0,0,0,0,0,0,0,0,0,0,0,0,0,0,0,0,0,0,0,
0,0,0,0,0,0,0,0,0,0,0,0,0,0,0,0,0,0,0,0,0,0,0,0,0,0,0,0,0,0,0,0,0,0,0,0,0,0,0,0,0,0,0,0,0,0,0,0,0,0,0,0,0,0,0,0,0,0,0,0,0,0,0,0,0,0,0,0,0,0,0,0,0,0,0,0,0,0,0,0,
0,0,0,0,0,0,0,0,0,0,0,0,0,0,0,0,0,0,0,0,0,0,0,0,0,0,0,0,0,0,0,0,0,0,0,0,0,0,0,0,0,0,0,0,0,0,0,0,0,0,0,0,0,0,0,0,0,0,0,0,0,0,0,0,0,0,0,0,0,0,0,0,0,0,0,0,0,0,0,0,
0,0,0,0,0,0,0,0,0,0,0,0,0,0,0,0,0,0,0,0,0,0,0,0,0,0,0,0,0,0,0,0,0,0,0,0,0,0,0,0,0,0,0,0,0,0,0,0,0,0,0,0,0,0,0,0,0,0,0,0,0,0,0,0,0,0,0,0,0,0,0,0,0,0,0,0,0,0,0,0,
0,0,0,0,0,0,0,0,0,0,0,0,0,0,0,0,0,0,0,0,0,0,0,0,0,0,0,0,0,0,0,0,0,0,0,0,0,0,0,0,0,0,0,0,0,0,0,0,0,0,0,0,0,0,0,0,0,0,0,0,0,0,0,0,0,0,0,0,0,0,0,0,0,0,0,0,0,0,0,0,
0,0,0,0,0,0,0,0,0,0,0,0,0,0,0,0,0,0,0,0,0,0,0,0,0,0,0,0,0,0,0,0,0,0,0,0,0,0,0,0,0,0,0,0,0,0,0,0,0,0,0,0,0,0,0,0,0,0,0,0,0,0,0,0,0,0,0,0,0,0,0,0,0,0,0,0,0,0,0,0,
0,0,0,0,0,0,0,0,0,0,0,0,0,0,0,0,0,0,0,0,0,0,0,0,0,0,0,0,0,0,0,0,0,0,0,0,0,0,0,0,0,0,0,0,0,0,0,0,0,0,0,0,0,0,0,0,0,0,0,0,0,0,0,0,0,0,0,0,0,0,0,0,0,0,0,0,0,0,0,0,
0,0,0,0,0,0,0,0,0,0,0,0,0,0,0,0,0,0,0,0,0,0,0,0,0,0,0,0,0,0,0,0,0,0,0,0,0,0,0,0,0,0,0,0,0,0,0,0,0,0,0,0,0,0,0,0,0,0,0,0,0,0,0,0,0,0,0,0,0,0,0,0,0,0,0,0,0,0,0,0
</data>
 </layer>
 <objectgroup id="8" name="floor_decor">
  <object id="116" type="int_rug_red" gid="1303" x="1968" y="288" width="64" height="64"/>
  <object id="117" type="int_mat_red" gid="1297" x="1984" y="384" width="44" height="22"/>
  <object id="118" type="int_rug_green" gid="1302" x="2336" y="1107" width="64" height="64"/>
  <object id="119" type="int_mat_brown" gid="1295" x="2240" y="1152" width="44" height="22"/>
  <object id="120" type="int_mat_grey" gid="1296" x="864" y="1120" width="44" height="22"/>
  <object id="121" type="int_rug_blue" gid="1301" x="528" y="1120" width="64" height="64"/>
  <object id="122" type="int_mat_blue" gid="1294" x="544" y="960" width="44" height="22"/>
 </objectgroup>
 <objectgroup id="9" name="objects">
  <properties>
   <property name="ysort" type="bool" value="true"/>
  </properties>
  <object id="123" type="water_rock3" gid="1411" x="640" y="94" width="64" height="64"/>
  <object id="124" type="pine_tall" gid="1343" x="1104" y="157" width="192" height="256"/>
  <object id="125" type="pine" gid="1335" x="1284" y="175" width="192" height="256"/>
  <object id="126" type="int_win_round" gid="1314" x="1906" y="176" width="28" height="28"/>
  <object id="127" type="int_win_round" gid="1314" x="2082" y="176" width="28" height="28"/>
  <object id="128" type="int_win_glass" gid="1313" x="1991" y="177" width="50" height="30"/>
  <object id="129" type="pine" gid="1335" x="964" y="185" width="192" height="256"/>
  <object id="130" type="deco08" gid="1239" x="496" y="203" width="64" height="64"/>
  <object id="131" type="pine" gid="1335" x="2154" y="205" width="192" height="256"/>
  <object id="132" type="pine" gid="1335" x="44" y="205" width="192" height="256"/>
  <object id="133" type="pine" gid="1335" x="2324" y="215" width="192" height="256"/>
  <object id="134" type="int_altar" gid="1274" x="1984" y="224" width="56" height="48"/>
  <object id="135" type="int_candle" gid="1279" x="1958" y="224" width="20" height="26"/>
  <object id="136" type="int_candle" gid="1279" x="2054" y="224" width="20" height="26"/>
  <object id="137" type="int_flowers3" gid="1292" x="1888" y="224" width="20" height="24"/>
  <object id="138" type="int_flowers1" gid="1291" x="2112" y="224" width="20" height="26"/>
  <object id="139" type="deco10" gid="1240" x="1068" y="238" width="64" height="64"/>
  <object id="140" type="water_rock2" gid="1395" x="2490" y="244" width="64" height="64"/>
  <object id="141" name="Gold Mine" type="gold_mine" gid="1265" x="1664" y="249" width="192" height="128"/>
  <object id="142" type="oak" gid="1318" x="724" y="252" width="192" height="192"/>
  <object id="143" type="axe" gid="1198" x="478" y="261" width="64" height="64"/>
  <object id="144" type="gold_stone4" gid="1268" x="1554" y="262" width="128" height="128"/>
  <object id="145" type="wood" gid="1427" x="448" y="268" width="64" height="64"/>
  <object id="146" type="deco10" gid="1240" x="2216" y="270" width="64" height="64"/>
  <object id="147" type="oak_autumn" gid="1326" x="604" y="274" width="192" height="192"/>
  <object id="148" type="oak_autumn" gid="1326" x="844" y="284" width="192" height="192"/>
  <object id="149" type="int_sofa" gid="1309" x="1888" y="288" width="54" height="24"/>
  <object id="150" type="int_sofa" gid="1309" x="2080" y="288" width="54" height="24"/>
  <object id="151" type="deco15" gid="1245" x="2294" y="300" width="64" height="64"/>
  <object id="152" type="deco02" gid="1234" x="978" y="301" width="64" height="64"/>
  <object id="153" name="Barn" type="barracks_yellow" gid="1199" x="304" y="311" width="192" height="256"/>
  <object id="154" name="Farmhouse" type="house1_yellow" gid="1272" x="150" y="319" width="128" height="192"/>
  <object id="155" type="pickaxe" gid="1334" x="1618" y="320" width="64" height="64"/>
  <object id="156" type="sign_skull" gid="1374" x="2137" y="324" width="64" height="128"/>
  <object id="157" type="gold_stone6" gid="1269" x="1657" y="340" width="128" height="128"/>
  <object id="158" type="deco14" gid="1244" x="2227" y="347" width="64" height="64"/>
  <object id="159" type="gold_stone1" gid="1267" x="1766" y="349" width="128" height="128"/>
  <object id="160" type="int_sofa" gid="1309" x="1888" y="352" width="54" height="24"/>
  <object id="161" type="int_sofa" gid="1309" x="2080" y="352" width="54" height="24"/>
  <object id="162" type="water_rock1" gid="1379" x="40" y="364" width="64" height="64"/>
  <object id="163" type="pine" gid="1335" x="2334" y="375" width="192" height="256"/>
  <object id="164" type="deco04" gid="1236" x="435" y="375" width="64" height="64"/>
  <object id="165" type="oak" gid="1318" x="674" y="382" width="192" height="192"/>
  <object id="166" type="int_palm_pot" gid="1300" x="1888" y="384" width="28" height="44"/>
  <object id="167" type="int_palm_pot" gid="1300" x="2112" y="384" width="28" height="44"/>
  <object id="168" type="deco01" gid="1233" x="342" y="401" width="64" height="64"/>
  <object id="169" type="oak_autumn" gid="1326" x="554" y="404" width="192" height="192"/>
  <object id="170" name="Watchtower" type="tower_red" gid="1378" x="1476" y="406" width="128" height="256"/>
  <object id="171" type="oak_autumn" gid="1326" x="794" y="414" width="192" height="192"/>
  <object id="172" type="deco15" gid="1245" x="2164" y="420" width="64" height="64"/>
  <object id="173" type="sign_skull" gid="1374" x="2287" y="424" width="64" height="128"/>
  <object id="174" type="deco13" gid="1243" x="147" y="429" width="64" height="64"/>
  <object id="175" type="deco13" gid="1243" x="267" y="429" width="64" height="64"/>
  <object id="176" type="deco12" gid="1242" x="399" y="453" width="64" height="64"/>
  <object id="177" type="deco13" gid="1243" x="187" y="479" width="64" height="64"/>
  <object id="178" type="deco13" gid="1243" x="307" y="479" width="64" height="64"/>
  <object id="179" type="deco15" gid="1245" x="2344" y="480" width="64" height="64"/>
  <object id="180" type="deco14" gid="1244" x="2217" y="487" width="64" height="64"/>
  <object id="181" type="oak_autumn" gid="1326" x="864" y="494" width="192" height="192"/>
  <object id="182" type="oak" gid="1318" x="724" y="502" width="192" height="192"/>
  <object id="183" type="deco04" gid="1236" x="2106" y="507" width="64" height="64"/>
  <object id="184" type="deco13" gid="1243" x="107" y="509" width="64" height="64"/>
  <object id="185" name="Town Hall" type="castle_blue" gid="1232" x="1120" y="519" width="320" height="256"/>
  <object id="186" type="oak_autumn" gid="1326" x="604" y="524" width="192" height="192"/>
  <object id="187" type="deco13" gid="1243" x="347" y="529" width="64" height="64"/>
  <object id="188" name="Archery Range" type="archery_red" gid="1197" x="1596" y="536" width="192" height="256"/>
  <object id="189" type="scarecrow" gid="1354" x="152" y="543" width="192" height="192"/>
  <object id="190" type="sign_arrow" gid="1373" x="1548" y="553" width="64" height="128"/>
  <object id="191" type="deco02" gid="1234" x="877" y="557" width="64" height="64"/>
  <object id="192" type="deco10" gid="1240" x="1775" y="558" width="64" height="64"/>
  <object id="193" type="pine_tall" gid="1343" x="2344" y="567" width="192" height="256"/>
  <object id="194" type="pine" gid="1335" x="4" y="575" width="192" height="256"/>
  <object id="195" type="oak" gid="1318" x="1784" y="582" width="192" height="192"/>
  <object id="196" type="sign_arrow" gid="1373" x="968" y="583" width="64" height="128"/>
  <object id="197" type="oak" gid="1318" x="2234" y="602" width="192" height="192"/>
  <object id="198" type="oak" gid="1318" x="464" y="612" width="192" height="192"/>
  <object id="199" type="deco10" gid="1240" x="853" y="622" width="64" height="64"/>
  <object id="200" type="deco10" gid="1240" x="615" y="622" width="64" height="64"/>
  <object id="201" type="sheep" gid="2147485003" x="66" y="644" width="128" height="128"/>
  <object id="202" type="sheep" gid="1355" x="266" y="654" width="128" height="128"/>
  <object id="203" type="deco10" gid="1240" x="2066" y="654" width="64" height="64"/>
  <object id="204" type="deco01" gid="1233" x="1716" y="657" width="64" height="64"/>
  <object id="205" type="sheep_grazing" gid="1361" x="146" y="684" width="128" height="128"/>
  <object id="206" type="deco02" gid="1234" x="340" y="685" width="64" height="64"/>
  <object id="207" type="deco05" gid="1237" x="1768" y="692" width="64" height="64"/>
  <object id="208" type="sheep_grazing" gid="1361" x="366" y="694" width="128" height="128"/>
  <object id="209" type="pine" gid="1335" x="2324" y="715" width="192" height="256"/>
  <object id="210" type="deco08" gid="1239" x="2061" y="715" width="64" height="64"/>
  <object id="211" type="sheep" gid="2147485003" x="206" y="734" width="128" height="128"/>
  <object id="212" type="bush3" gid="1216" x="498" y="744" width="128" height="128"/>
  <object id="213" type="deco10" gid="1240" x="967" y="758" width="64" height="64"/>
  <object id="214" type="deco10" gid="1240" x="1527" y="758" width="64" height="64"/>
  <object id="215" type="bush1" gid="1200" x="1836" y="789" width="128" height="128"/>
  <object id="216" type="wood" gid="1427" x="308" y="878" width="64" height="64"/>
  <object id="217" type="deco05" gid="1237" x="1580" y="884" width="64" height="64"/>
  <object id="218" type="meat" gid="1317" x="158" y="892" width="64" height="64"/>
  <object id="219" type="wood" gid="1427" x="288" y="898" width="64" height="64"/>
  <object id="220" type="deco08" gid="1239" x="88" y="907" width="64" height="64"/>
  <object id="221" type="int_shelf_potions" gid="1307" x="2128" y="910" width="32" height="24"/>
  <object id="222" type="deco10" gid="1240" x="1779" y="910" width="64" height="64"/>
  <object id="223" type="int_shelf_jars" gid="1306" x="2178" y="911" width="28" height="26"/>
  <object id="224" type="meat" gid="1317" x="198" y="912" width="64" height="64"/>
  <object id="225" type="int_clock" gid="1285" x="2216" y="912" width="28" height="28"/>
  <object id="226" type="int_win_wide" gid="1316" x="2248" y="913" width="48" height="30"/>
  <object id="227" type="int_painting" gid="1299" x="2306" y="916" width="60" height="36"/>
  <object id="228" type="wood" gid="1427" x="328" y="918" width="64" height="64"/>
  <object id="229" type="deco02" gid="1234" x="1608" y="941" width="64" height="64"/>
  <object id="230" type="int_shelf_pots" gid="1308" x="850" y="942" width="28" height="24"/>
  <object id="231" type="int_win_square" gid="1315" x="930" y="945" width="28" height="30"/>
  <object id="232" type="int_boards" gid="1278" x="960" y="948" width="64" height="36"/>
  <object id="233" type="int_fireplace" gid="1290" x="2368" y="960" width="62" height="82"/>
  <object id="234" type="int_shelf" gid="1304" x="480" y="960" width="54" height="62"/>
  <object id="235" type="int_shelf_dishes" gid="1305" x="608" y="960" width="54" height="62"/>
  <object id="236" type="deco07" gid="1238" x="118" y="981" width="64" height="64"/>
  <object id="237" type="gold_pile" gid="1266" x="337" y="988" width="128" height="128"/>
  <object id="238" type="int_fireplace" gid="1290" x="768" y="992" width="62" height="82"/>
  <object id="239" type="int_cauldron_hot" gid="1281" x="832" y="992" width="28" height="30"/>
  <object id="240" type="int_chest_iron" gid="1284" x="992" y="992" width="28" height="30"/>
  <object id="241" type="bush4" gid="1224" x="77" y="999" width="128" height="128"/>
  <object id="242" type="bush2" gid="1208" x="1506" y="1000" width="128" height="128"/>
  <object id="243" type="int_stool" gid="1310" x="2208" y="1011" width="24" height="24"/>
  <object id="244" type="int_stool" gid="1310" x="2304" y="1011" width="24" height="24"/>
  <object id="245" type="int_bar_l" gid="1275" x="2112" y="1024" width="62" height="94"/>
  <object id="246" type="int_table_red" gid="1312" x="2240" y="1024" width="60" height="60"/>
  <object id="247" type="pickaxe" gid="1334" x="970" y="1028" width="64" height="64"/>
  <object id="248" type="hammer" gid="1270" x="938" y="1032" width="64" height="64"/>
  <object id="249" type="int_table_long" gid="1311" x="915" y="1037" width="86" height="60"/>
  <object id="250" type="int_nightstand_candle" gid="1298" x="2368" y="1040" width="26" height="44"/>
  <object id="251" type="stump2" gid="1376" x="1466" y="1041" width="192" height="256"/>
  <object id="252" type="oak" gid="1318" x="894" y="1042" width="192" height="192"/>
  <object id="253" type="oak" gid="1318" x="1474" y="1042" width="192" height="192"/>
  <object id="254" type="int_counter_goods" gid="1287" x="480" y="1043" width="60" height="60"/>
  <object id="255" type="int_counter" gid="1286" x="608" y="1043" width="60" height="60"/>
  <object id="256" type="water_rock3" gid="1411" x="2490" y="1044" width="64" height="64"/>
  <object id="257" type="int_bed_blue" gid="1277" x="2400" y="1056" width="32" height="50"/>
  <object id="258" type="int_cauldron" gid="1280" x="832" y="1056" width="28" height="30"/>
  <object id="259" type="int_crate" gid="1288" x="2112" y="1069" width="28" height="28"/>
  <object id="260" type="stump2" gid="1376" x="1606" y="1071" width="192" height="256"/>
  <object id="261" type="deco07" gid="1238" x="1454" y="1073" width="64" height="64"/>
  <object id="262" type="stump1" gid="1375" x="1341" y="1076" width="192" height="256"/>
  <object id="263" type="int_barrel" gid="1276" x="2112" y="1088" width="28" height="30"/>
  <object id="264" type="int_barrel" gid="1276" x="2144" y="1088" width="28" height="30"/>
  <object id="265" name="Mayor&apos;s House" type="house2_yellow" gid="1273" x="1946" y="1094" width="128" height="192"/>
  <object id="266" name="Cottage" type="house1_blue" gid="1271" x="1816" y="1099" width="128" height="192"/>
  <object id="267" type="water_rock1" gid="1379" x="148" y="1108" width="64" height="64"/>
  <object id="268" type="wood" gid="1427" x="1568" y="1118" width="64" height="64"/>
  <object id="269" type="int_chair_l" gid="1282" x="2224" y="1120" width="20" height="32"/>
  <object id="270" type="int_chair_r" gid="1283" x="2323" y="1120" width="20" height="32"/>
  <object id="271" type="int_crates" gid="1289" x="954" y="1120" width="58" height="40"/>
  <object id="272" type="int_barrel" gid="1276" x="768" y="1120" width="28" height="30"/>
  <object id="273" type="int_logs" gid="1293" x="800" y="1120" width="26" height="22"/>
  <object id="274" type="int_crate" gid="1288" x="480" y="1120" width="28" height="28"/>
  <object id="275" type="int_barrel" gid="1276" x="640" y="1120" width="28" height="30"/>
  <object id="276" type="int_table_red" gid="1312" x="2256" y="1130" width="60" height="60"/>
  <object id="277" type="axe" gid="1198" x="1498" y="1131" width="64" height="64"/>
  <object id="278" type="wood" gid="1427" x="1388" y="1138" width="64" height="64"/>
  <object id="279" type="wood" gid="1427" x="1418" y="1148" width="64" height="64"/>
  <object id="280" type="stump1" gid="1375" x="1521" y="1166" width="192" height="256"/>
  <object id="281" type="wood" gid="1427" x="1068" y="1168" width="64" height="64"/>
  <object id="282" type="wood" gid="1427" x="1088" y="1188" width="64" height="64"/>
  <object id="283" type="stump3" gid="1377" x="1383" y="1194" width="192" height="256"/>
  <object id="284" type="rock4" gid="1353" x="1028" y="1198" width="64" height="64"/>
  <object id="285" type="duck" gid="1246" x="340" y="1214" width="32" height="32"/>
  <object id="286" type="pine" gid="1335" x="1664" y="1215" width="192" height="256"/>
  <object id="287" type="hammer" gid="1270" x="726" y="1219" width="64" height="64"/>
  <object id="288" type="water_rock2" gid="1395" x="212" y="1226" width="64" height="64"/>
  <object id="289" type="rock1" gid="1351" x="999" y="1228" width="64" height="64"/>
  <object id="290" type="deco10" gid="1240" x="1975" y="1230" width="64" height="64"/>
  <object id="291" type="deco07" gid="1238" x="1898" y="1233" width="64" height="64"/>
  <object id="292" type="deco07" gid="1238" x="1328" y="1233" width="64" height="64"/>
  <object id="293" type="pickaxe" gid="1334" x="758" y="1235" width="64" height="64"/>
  <object id="294" type="deco08" gid="1239" x="568" y="1265" width="64" height="64"/>
  <object id="295" type="deco01" gid="1233" x="2056" y="1271" width="64" height="64"/>
  <object id="296" type="rock3" gid="1352" x="506" y="1272" width="64" height="64"/>
  <object id="297" type="deco11" gid="1241" x="2404" y="1274" width="64" height="64"/>
  <object id="298" type="deco02" gid="2147484882" x="2086" y="1282" width="64" height="64"/>
  <object id="299" type="deco11" gid="1241" x="2214" y="1290" width="64" height="64"/>
  <object id="300" type="deco10" gid="1240" x="1323" y="1294" width="64" height="64"/>
  <object id="301" type="sheep" gid="1355" x="2246" y="1324" width="128" height="128"/>
  <object id="302" type="deco10" gid="1240" x="615" y="1326" width="64" height="64"/>
  <object id="303" type="deco01" gid="1233" x="902" y="1329" width="64" height="64"/>
  <object id="304" type="sheep" gid="2147485003" x="1926" y="1334" width="128" height="128"/>
  <object id="305" type="pine_tall" gid="1343" x="1544" y="1337" width="192" height="256"/>
  <object id="306" type="pine_tall" gid="1343" x="1354" y="1337" width="192" height="256"/>
  <object id="307" type="pine" gid="1335" x="1054" y="1345" width="192" height="256"/>
  <object id="308" type="deco03" gid="1235" x="1967" y="1355" width="64" height="64"/>
  <object id="309" type="deco10" gid="1240" x="2036" y="1358" width="64" height="64"/>
  <object id="310" type="deco10" gid="1240" x="1334" y="1358" width="64" height="64"/>
  <object id="311" type="bush3" gid="1216" x="68" y="1364" width="128" height="128"/>
  <object id="312" type="sheep_grazing" gid="2147485009" x="2106" y="1364" width="128" height="128"/>
  <object id="313" type="bush2" gid="1208" x="1836" y="1382" width="128" height="128"/>
  <object id="314" type="bush3" gid="1216" x="2338" y="1384" width="128" height="128"/>
  <object id="315" type="water_rock2" gid="1395" x="1610" y="1444" width="64" height="64"/>
 </objectgroup>
 <objectgroup id="10" name="collision" visible="0">
  <object id="316" type="obstacle" x="0" y="0" width="2560" height="64"/>
  <object id="317" type="obstacle" x="0" y="64" width="192" height="64"/>
  <object id="318" type="obstacle" x="576" y="64" width="256" height="64"/>
  <object id="319" type="obstacle" x="1728" y="64" width="192" height="64"/>
  <object id="320" type="obstacle" x="2368" y="64" width="192" height="64"/>
  <object id="321" type="obstacle" x="1920" y="96" width="256" height="96"/>
  <object id="322" type="obstacle" x="0" y="128" width="128" height="64"/>
  <object id="323" type="obstacle" x="1056" y="128" width="32" height="32"/>
  <object id="324" type="obstacle" x="1184" y="128" width="32" height="32"/>
  <object id="325" type="obstacle" x="1376" y="128" width="32" height="32"/>
  <object id="326" type="obstacle" x="1856" y="128" width="64" height="96"/>
  <object id="327" type="obstacle" x="2432" y="128" width="128" height="64"/>
  <object id="328" type="obstacle" x="128" y="160" width="32" height="32"/>
  <object id="329" type="obstacle" x="1696" y="160" width="128" height="64"/>
  <object id="330" type="obstacle" x="2240" y="160" width="32" height="32"/>
  <object id="331" type="obstacle" x="2400" y="160" width="32" height="32"/>
  <object id="332" type="obstacle" x="0" y="192" width="64" height="1248"/>
  <object id="333" type="obstacle" x="320" y="192" width="160" height="96"/>
  <object id="334" type="obstacle" x="800" y="192" width="32" height="32"/>
  <object id="335" type="obstacle" x="1600" y="192" width="64" height="32"/>
  <object id="336" type="obstacle" x="1952" y="192" width="128" height="32"/>
  <object id="337" type="obstacle" x="2112" y="192" width="64" height="32"/>
  <object id="338" type="obstacle" x="2496" y="192" width="64" height="1248"/>
  <object id="339" type="obstacle" x="160" y="224" width="96" height="64"/>
  <object id="340" type="obstacle" x="672" y="224" width="32" height="32"/>
  <object id="341" type="obstacle" x="928" y="224" width="32" height="32"/>
  <object id="342" type="obstacle" x="1856" y="224" width="32" height="192"/>
  <object id="343" type="obstacle" x="2144" y="224" width="32" height="192"/>
  <object id="344" type="obstacle" x="1664" y="256" width="96" height="64"/>
  <object id="345" type="obstacle" x="1888" y="256" width="32" height="32"/>
  <object id="346" type="obstacle" x="2080" y="256" width="32" height="32"/>
  <object id="347" type="obstacle" x="1472" y="288" width="128" height="96"/>
  <object id="348" type="obstacle" x="768" y="320" width="32" height="32"/>
  <object id="349" type="obstacle" x="1888" y="320" width="32" height="96"/>
  <object id="350" type="obstacle" x="2080" y="320" width="32" height="32"/>
  <object id="351" type="obstacle" x="2400" y="320" width="32" height="32"/>
  <object id="352" type="obstacle" x="640" y="352" width="32" height="32"/>
  <object id="353" type="obstacle" x="864" y="352" width="32" height="32"/>
  <object id="354" type="obstacle" x="2112" y="352" width="32" height="64"/>
  <object id="355" type="obstacle" x="1152" y="384" width="256" height="128"/>
  <object id="356" type="obstacle" x="1920" y="384" width="64" height="32"/>
  <object id="357" type="obstacle" x="2048" y="384" width="64" height="32"/>
  <object id="358" type="obstacle" x="2304" y="384" width="32" height="32"/>
  <object id="359" type="obstacle" x="1600" y="416" width="192" height="96"/>
  <object id="360" type="obstacle" x="64" y="448" width="64" height="192"/>
  <object id="361" type="obstacle" x="800" y="448" width="32" height="32"/>
  <object id="362" type="obstacle" x="928" y="448" width="32" height="32"/>
  <object id="363" type="obstacle" x="2432" y="448" width="64" height="128"/>
  <object id="364" type="obstacle" x="224" y="480" width="32" height="32"/>
  <object id="365" type="obstacle" x="672" y="480" width="32" height="32"/>
  <object id="366" type="obstacle" x="1568" y="512" width="32" height="32"/>
  <object id="367" type="obstacle" x="992" y="544" width="32" height="32"/>
  <object id="368" type="obstacle" x="1856" y="544" width="32" height="32"/>
  <object id="369" type="obstacle" x="2304" y="544" width="32" height="32"/>
  <object id="370" type="obstacle" x="544" y="576" width="32" height="32"/>
  <object id="371" type="obstacle" x="512" y="672" width="96" height="32"/>
  <object id="372" type="obstacle" x="2400" y="672" width="32" height="32"/>
  <object id="373" type="obstacle" x="1856" y="704" width="64" height="32"/>
  <object id="374" type="obstacle" x="448" y="832" width="96" height="128"/>
  <object id="375" type="obstacle" x="608" y="832" width="96" height="128"/>
  <object id="376" type="obstacle" x="2080" y="832" width="384" height="96"/>
  <object id="377" type="obstacle" x="736" y="864" width="320" height="96"/>
  <object id="378" type="obstacle" x="2080" y="928" width="32" height="160"/>
  <object id="379" type="obstacle" x="2368" y="928" width="96" height="32"/>
  <object id="380" type="obstacle" x="192" y="960" width="64" height="480"/>
  <object id="381" type="obstacle" x="320" y="960" width="64" height="384"/>
  <object id="382" type="obstacle" x="448" y="960" width="32" height="192"/>
  <object id="383" type="obstacle" x="672" y="960" width="32" height="192"/>
  <object id="384" type="obstacle" x="736" y="960" width="128" height="32"/>
  <object id="385" type="obstacle" x="992" y="960" width="64" height="32"/>
  <object id="386" type="obstacle" x="2112" y="960" width="64" height="64"/>
  <object id="387" type="obstacle" x="2432" y="960" width="64" height="128"/>
  <object id="388" type="obstacle" x="736" y="992" width="32" height="160"/>
  <object id="389" type="obstacle" x="928" y="992" width="64" height="32"/>
  <object id="390" type="obstacle" x="1024" y="992" width="32" height="192"/>
  <object id="391" type="obstacle" x="1536" y="992" width="64" height="32"/>
  <object id="392" type="obstacle" x="1824" y="992" width="96" height="96"/>
  <object id="393" type="obstacle" x="1952" y="992" width="128" height="64"/>
  <object id="394" type="obstacle" x="2208" y="992" width="128" height="32"/>
  <object id="395" type="obstacle" x="128" y="1024" width="64" height="416"/>
  <object id="396" type="obstacle" x="384" y="1024" width="64" height="256"/>
  <object id="397" type="obstacle" x="480" y="1024" width="64" height="32"/>
  <object id="398" type="obstacle" x="608" y="1024" width="64" height="32"/>
  <object id="399" type="obstacle" x="832" y="1024" width="32" height="32"/>
  <object id="400" type="obstacle" x="1408" y="1024" width="64" height="32"/>
  <object id="401" type="obstacle" x="1664" y="1024" width="64" height="32"/>
  <object id="402" type="obstacle" x="2368" y="1024" width="64" height="32"/>
  <object id="403" type="obstacle" x="2112" y="1056" width="64" height="32"/>
  <object id="404" type="obstacle" x="480" y="1088" width="32" height="64"/>
  <object id="405" type="obstacle" x="640" y="1088" width="32" height="64"/>
  <object id="406" type="obstacle" x="768" y="1088" width="64" height="64"/>
  <object id="407" type="obstacle" x="960" y="1088" width="64" height="64"/>
  <object id="408" type="obstacle" x="2208" y="1088" width="32" height="32"/>
  <object id="409" type="obstacle" x="2272" y="1088" width="64" height="32"/>
  <object id="410" type="obstacle" x="2432" y="1088" width="32" height="96"/>
  <object id="411" type="obstacle" x="512" y="1120" width="128" height="32"/>
  <object id="412" type="obstacle" x="832" y="1120" width="32" height="32"/>
  <object id="413" type="obstacle" x="928" y="1120" width="32" height="32"/>
  <object id="414" type="obstacle" x="1600" y="1120" width="32" height="32"/>
  <object id="415" type="obstacle" x="256" y="1152" width="64" height="192"/>
  <object id="416" type="obstacle" x="1056" y="1152" width="32" height="32"/>
  <object id="417" type="obstacle" x="1728" y="1152" width="64" height="32"/>
  <object id="418" type="obstacle" x="2080" y="1152" width="160" height="32"/>
  <object id="419" type="obstacle" x="2304" y="1152" width="128" height="32"/>
  <object id="420" type="obstacle" x="64" y="1280" width="64" height="160"/>
  <object id="421" type="obstacle" x="2432" y="1280" width="64" height="160"/>
  <object id="422" type="obstacle" x="1120" y="1312" width="32" height="32"/>
  <object id="423" type="obstacle" x="1440" y="1312" width="32" height="32"/>
  <object id="424" type="obstacle" x="1632" y="1312" width="32" height="128"/>
  <object id="425" type="obstacle" x="2368" y="1312" width="64" height="128"/>
  <object id="426" type="obstacle" x="832" y="1344" width="192" height="96"/>
  <object id="427" type="obstacle" x="1536" y="1344" width="96" height="96"/>
  <object id="428" type="obstacle" x="1664" y="1344" width="128" height="96"/>
  <object id="429" type="obstacle" x="2304" y="1344" width="64" height="96"/>
  <object id="430" type="obstacle" x="256" y="1408" width="576" height="32"/>
  <object id="431" type="obstacle" x="1024" y="1408" width="512" height="32"/>
  <object id="432" type="obstacle" x="1792" y="1408" width="512" height="32"/>
 </objectgroup>
 <objectgroup id="11" name="spawns">
  <object id="433" name="spawn_0" type="spawn" x="1280" y="632">
   <point/>
  </object>
  <object id="434" name="spawn_1" type="spawn" x="1368" y="653">
   <point/>
  </object>
  <object id="435" name="spawn_2" type="spawn" x="1423" y="708">
   <point/>
  </object>
  <object id="436" name="spawn_3" type="spawn" x="1423" y="776">
   <point/>
  </object>
  <object id="437" name="spawn_4" type="spawn" x="1368" y="831">
   <point/>
  </object>
  <object id="438" name="spawn_5" type="spawn" x="1280" y="852">
   <point/>
  </object>
  <object id="439" name="spawn_6" type="spawn" x="1192" y="831">
   <point/>
  </object>
  <object id="440" name="spawn_7" type="spawn" x="1137" y="776">
   <point/>
  </object>
  <object id="441" name="spawn_8" type="spawn" x="1137" y="708">
   <point/>
  </object>
  <object id="442" name="spawn_9" type="spawn" x="1192" y="653">
   <point/>
  </object>
 </objectgroup>
 <objectgroup id="12" name="zones">
  <object id="443" name="Town Square" type="zone" x="960" y="512" width="640" height="448"/>
  <object id="444" name="Town Hall" type="zone" x="1088" y="96" width="384" height="416"/>
  <object id="445" name="Farm" type="zone" x="64" y="64" width="480" height="704"/>
  <object id="446" name="Orchard" type="zone" x="544" y="64" width="480" height="480"/>
  <object id="447" name="Watchtower" type="zone" x="1472" y="96" width="160" height="416"/>
  <object id="448" name="Gold Mine" type="zone" x="1632" y="64" width="224" height="256"/>
  <object id="449" name="Archery Range" type="zone" x="1632" y="320" width="224" height="256"/>
  <object id="450" name="Graveyard" type="zone" x="2176" y="64" width="320" height="448"/>
  <object id="451" name="Market" type="zone" x="64" y="832" width="384" height="128"/>
  <object id="452" name="Pond" type="zone" x="64" y="960" width="384" height="416"/>
  <object id="453" name="Smithy Yard" type="zone" x="704" y="1152" width="512" height="160"/>
  <object id="454" name="Lumber Yard" type="zone" x="1312" y="928" width="544" height="416"/>
  <object id="455" name="Residences" type="zone" x="1856" y="800" width="224" height="320"/>
  <object id="456" name="Meadow" type="zone" x="1856" y="1184" width="640" height="192"/>
  <object id="457" name="Beach" type="zone" x="960" y="1312" width="896" height="96"/>
  <object id="458" name="Chapel" type="room" x="1856" y="96" width="320" height="320"/>
  <object id="459" name="Inn" type="room" x="2080" y="832" width="384" height="352"/>
  <object id="460" name="Smithy" type="room" x="736" y="864" width="320" height="288"/>
  <object id="461" name="General Store" type="room" x="448" y="832" width="256" height="320"/>
 </objectgroup>
 <objectgroup id="13" name="points">
  <object id="462" name="emergency_button" type="emergency_button" x="1280" y="742">
   <point/>
  </object>
  <object id="463" name="Feed the sheep" type="task" x="280" y="600">
   <point/>
  </object>
  <object id="464" name="Harvest pumpkins" type="task" x="300" y="460">
   <point/>
  </object>
  <object id="465" name="Pick apples" type="task" x="840" y="420">
   <point/>
  </object>
  <object id="466" name="Pray at the altar" type="task" x="2016" y="300">
   <point/>
  </object>
  <object id="467" name="Restock the shelves" type="task" x="560" y="1000">
   <point/>
  </object>
  <object id="468" name="Fish from the dock" type="task" x="288" y="1110">
   <point/>
  </object>
  <object id="469" name="Stoke the forge" type="task" x="800" y="1030">
   <point/>
  </object>
  <object id="470" name="Chop firewood" type="task" x="1570" y="1110">
   <point/>
  </object>
  <object id="471" name="Mine gold" type="task" x="1760" y="300">
   <point/>
  </object>
  <object id="472" name="Practice archery" type="task" x="1690" y="560">
   <point/>
  </object>
  <object id="473" name="Sign the town ledger" type="task" x="1280" y="544">
   <point/>
  </object>
  <object id="474" name="Serve drinks at the inn" type="task" x="2190" y="980">
   <point/>
  </object>
  <object id="475" name="Tidy the graves" type="task" x="2260" y="380">
   <point/>
  </object>
  <object id="476" name="Keep watch from the tower" type="task" x="1540" y="420">
   <point/>
  </object>
 </objectgroup>
</map>
